;FLAVOR:Marlin
;TIME:2038
;Filament used: 1.38968m
;Layer height: 0.28
;MINX:51.514
;MINY:105.638
;MINZ:0.28
;MAXX:183.514
;MAXY:129.361
;MAXZ:22.4
;Generated with Cura_SteamEngine main
M140 S50
M105
M190 S50
M104 S200
M105
M109 S200
M82 ;absolute extrusion mode
; Ender 3 Custom Start G-code
G92 E0 ; Reset Extruder
G28 ; Home all axes
G1 Z2.0 F3000 ; Move Z Axis up little to prevent scratching of Heat Bed
G1 X0.1 Y20 Z0.3 F5000.0 ; Move to start position
G1 X0.1 Y200.0 Z0.3 F1500.0 E15 ; Draw the first line
G1 X0.4 Y200.0 Z0.3 F5000.0 ; Move to side a little
G1 X0.4 Y20 Z0.3 F1500.0 E30 ; Draw the second line
G92 E0 ; Reset Extruder
G1 Z2.0 F3000 ; Move Z Axis up little to prevent scratching of Heat Bed
G1 X5 Y20 Z0.3 F5000.0 ; Move over to prevent blob squish
G92 E0
G92 E0
G1 F2700 E-5
;LAYER_COUNT:91
;LAYER:0
M107
G0 F6000 X57.62 Y107.704 Z0.28
;TYPE:SKIRT
G1 F2700 E0
G1 F1200 X58.431 Y107.305 E0.04209
G1 X59.273 Y106.98 E0.08411
G1 X60.141 Y106.73 E0.12617
G1 X61.028 Y106.558 E0.16825
G1 X62.221 Y106.452 E0.22402
G1 X62.827 Y106.439 E0.25224
G1 X171.806 Y106.438 E5.32676
G1 X172.651 Y106.449 E5.36611
G1 X173.552 Y106.502 E5.40814
G1 X174.446 Y106.634 E5.45022
G1 X175.324 Y106.845 E5.49226
G1 X176.18 Y107.133 E5.53432
G1 X177.007 Y107.495 E5.57635
G1 X177.799 Y107.929 E5.61841
G1 X178.55 Y108.432 E5.66049
G1 X179.253 Y108.999 E5.70255
G1 X179.903 Y109.626 E5.7446
G1 X180.495 Y110.308 E5.78665
G1 X181.024 Y111.039 E5.82867
G1 X181.487 Y111.815 E5.87075
G1 X181.879 Y112.628 E5.91278
G1 X182.198 Y113.473 E5.95483
G1 X182.441 Y114.343 E5.99689
G1 X182.606 Y115.231 E6.03895
G1 X182.701 Y116.35 E6.09124
G1 X182.714 Y117.022 E6.12254
G1 X182.705 Y118.418 E6.18755
G1 X182.659 Y119.32 E6.2296
G1 X182.534 Y120.214 E6.27163
G1 X182.33 Y121.094 E6.3137
G1 X182.049 Y121.952 E6.35574
G1 X181.693 Y122.782 E6.39779
G1 X181.265 Y123.577 E6.43983
G1 X180.768 Y124.332 E6.48192
G1 X180.207 Y125.039 E6.52395
G1 X179.585 Y125.694 E6.56601
G1 X178.908 Y126.292 E6.60807
G1 X178.181 Y126.827 E6.6501
G1 X177.409 Y127.296 E6.69216
G1 X176.598 Y127.695 E6.73425
G1 X175.756 Y128.02 E6.77627
G1 X174.888 Y128.27 E6.81833
G1 X174.002 Y128.442 E6.86036
G1 X172.791 Y128.548 E6.91697
G1 X172.184 Y128.561 E6.94524
G1 X63.076 Y128.561 E12.02576
G1 X62.377 Y128.551 E12.05831
G1 X61.476 Y128.498 E12.10034
G1 X60.582 Y128.366 E12.14242
G1 X59.704 Y128.155 E12.18447
G1 X58.848 Y127.867 E12.22652
G1 X58.021 Y127.505 E12.26856
G1 X57.229 Y127.071 E12.31061
G1 X56.478 Y126.568 E12.3527
G1 X55.775 Y126.001 E12.39476
G1 X55.125 Y125.374 E12.43681
G1 X54.533 Y124.692 E12.47886
G1 X54.004 Y123.961 E12.52088
G1 X53.541 Y123.185 E12.56295
G1 X53.149 Y122.372 E12.60498
G1 X52.83 Y121.527 E12.64704
G1 X52.587 Y120.657 E12.6891
G1 X52.422 Y119.769 E12.73116
G1 X52.327 Y118.627 E12.78452
G1 X52.314 Y117.951 E12.816
G1 X52.323 Y116.581 E12.87979
G1 X52.369 Y115.679 E12.92185
G1 X52.495 Y114.785 E12.96389
G1 X52.699 Y113.905 E13.00595
G1 X52.98 Y113.047 E13.04799
G1 X53.336 Y112.217 E13.09005
G1 X53.764 Y111.421 E13.13213
G1 X54.26 Y110.667 E13.17415
G1 X54.822 Y109.96 E13.21621
G1 X55.444 Y109.305 E13.25827
G1 X56.121 Y108.707 E13.30033
G1 X56.848 Y108.172 E13.34236
G1 X57.62 Y107.704 E13.3844
G0 F6000 X57.443 Y107.345
G1 F1200 X58.254 Y106.946 E13.42648
G1 X59.162 Y106.596 E13.4718
G1 X60.065 Y106.337 E13.51554
G1 X60.952 Y106.165 E13.55761
G1 X62.212 Y106.052 E13.61652
G1 X62.827 Y106.039 E13.64516
G1 X171.811 Y106.038 E18.71991
G1 X172.674 Y106.05 E18.7601
G1 X173.61 Y106.106 E18.80376
G1 X174.504 Y106.238 E18.84584
G1 X175.452 Y106.466 E18.89124
G1 X176.308 Y106.754 E18.9333
G1 X177.199 Y107.144 E18.97859
G1 X177.991 Y107.578 E19.02064
G1 X178.773 Y108.1 E19.06442
G1 X179.531 Y108.711 E19.10976
G1 X180.181 Y109.338 E19.15181
G1 X180.819 Y110.073 E19.19713
G1 X181.368 Y110.834 E19.24082
G1 X181.831 Y111.61 E19.2829
G1 X182.239 Y112.454 E19.32655
G1 X182.583 Y113.365 E19.37189
G1 X182.834 Y114.27 E19.41563
G1 X183.005 Y115.197 E19.45952
G1 X183.1 Y116.316 E19.51181
G1 X183.114 Y117.025 E19.54483
G1 X183.104 Y118.438 E19.61063
G1 X183.055 Y119.375 E19.65432
G1 X182.924 Y120.304 E19.69801
G1 X182.72 Y121.184 E19.74007
G1 X182.417 Y122.11 E19.78544
G1 X182.061 Y122.94 E19.82749
G1 X181.617 Y123.767 E19.8712
G1 X181.081 Y124.581 E19.91658
G1 X180.52 Y125.288 E19.95861
G1 X179.85 Y125.994 E20.00393
G1 X179.173 Y126.592 E20.04599
G1 X178.389 Y127.169 E20.09132
G1 X177.586 Y127.655 E20.13502
G1 X176.775 Y128.054 E20.17711
G1 X175.867 Y128.404 E20.22242
G1 X174.964 Y128.663 E20.26616
G1 X174.078 Y128.835 E20.30819
G1 X172.8 Y128.948 E20.36793
G1 X172.193 Y128.961 E20.3962
G1 X63.07 Y128.961 E25.47743
G1 X62.371 Y128.951 E25.50998
G1 X61.418 Y128.894 E25.55443
G1 X60.524 Y128.762 E25.59651
G1 X59.576 Y128.534 E25.64191
G1 X58.72 Y128.246 E25.68397
G1 X57.829 Y127.856 E25.72926
G1 X57.037 Y127.422 E25.77131
G1 X56.255 Y126.9 E25.81509
G1 X55.497 Y126.289 E25.86043
G1 X54.847 Y125.662 E25.90248
G1 X54.209 Y124.927 E25.9478
G1 X53.66 Y124.166 E25.99149
G1 X53.197 Y123.39 E26.03357
G1 X52.789 Y122.546 E26.07722
G1 X52.445 Y121.635 E26.12256
G1 X52.194 Y120.73 E26.1663
G1 X52.023 Y119.802 E26.21023
G1 X51.928 Y118.66 E26.26359
G1 X51.914 Y117.948 E26.29675
G1 X51.924 Y116.561 E26.36134
G1 X51.973 Y115.623 E26.40508
G1 X52.105 Y114.695 E26.44872
G1 X52.309 Y113.815 E26.49079
G1 X52.612 Y112.889 E26.53616
G1 X52.968 Y112.059 E26.57821
G1 X53.43 Y111.201 E26.62358
G1 X53.947 Y110.418 E26.66727
G1 X54.509 Y109.711 E26.70933
G1 X55.179 Y109.005 E26.75465
G1 X55.856 Y108.407 E26.79671
G1 X56.641 Y107.83 E26.84208
G1 X57.443 Y107.345 E26.88572
G0 F6000 X57.266 Y106.986
G1 F1200 X58.077 Y106.587 E26.92781
G1 X59.018 Y106.223 E26.97479
G1 X59.989 Y105.944 E27.02183
G1 X60.876 Y105.772 E27.0639
G1 X62.204 Y105.652 E27.12599
G1 X62.827 Y105.639 E27.15501
G1 X171.817 Y105.638 E32.23004
G1 X172.698 Y105.651 E32.27106
G1 X173.668 Y105.71 E32.31632
G1 X174.598 Y105.849 E32.3601
G1 X175.546 Y106.077 E32.4055
G1 X176.436 Y106.375 E32.44921
G1 X177.391 Y106.793 E32.49775
G1 X178.213 Y107.245 E32.54143
G1 X178.995 Y107.767 E32.58521
G1 X179.809 Y108.423 E32.63389
G1 X180.459 Y109.05 E32.67594
G1 X181.143 Y109.839 E32.72457
G1 X181.712 Y110.629 E32.7699
G1 X182.175 Y111.405 E32.81198
G1 X182.599 Y112.28 E32.85725
G1 X182.968 Y113.258 E32.90592
G1 X183.227 Y114.197 E32.95128
G1 X183.404 Y115.163 E32.99701
G1 X183.499 Y116.282 E33.0493
G1 X183.514 Y117.028 E33.08405
G1 X183.503 Y118.459 E33.15068
G1 X183.451 Y119.431 E33.19601
G1 X183.314 Y120.394 E33.2413
G1 X183.11 Y121.274 E33.28336
G1 X182.785 Y122.268 E33.33206
G1 X182.429 Y123.098 E33.37411
G1 X181.951 Y123.987 E33.42111
G1 X181.394 Y124.83 E33.46816
G1 X180.833 Y125.537 E33.51019
G1 X180.115 Y126.294 E33.55877
G1 X179.438 Y126.892 E33.60083
G1 X178.596 Y127.511 E33.64949
G1 X177.763 Y128.014 E33.6948
G1 X176.952 Y128.413 E33.73689
G1 X176.011 Y128.777 E33.78387
G1 X175.04 Y129.056 E33.83091
G1 X174.154 Y129.228 E33.87294
G1 X172.809 Y129.348 E33.93582
G1 X172.202 Y129.361 E33.96409
G1 X63.064 Y129.361 E39.04601
G1 X62.347 Y129.35 E39.0794
G1 X61.36 Y129.29 E39.12545
G1 X60.43 Y129.151 E39.16923
G1 X59.482 Y128.923 E39.21463
G1 X58.592 Y128.625 E39.25834
G1 X57.637 Y128.207 E39.30688
G1 X56.815 Y127.755 E39.35056
G1 X56.033 Y127.233 E39.39434
G1 X55.219 Y126.577 E39.44302
G1 X54.569 Y125.95 E39.48507
G1 X53.885 Y125.161 E39.5337
G1 X53.316 Y124.371 E39.57903
G1 X52.853 Y123.595 E39.62111
G1 X52.429 Y122.72 E39.66638
G1 X52.06 Y121.742 E39.71505
G1 X51.801 Y120.802 E39.76046
G1 X51.624 Y119.835 E39.80623
G1 X51.529 Y118.693 E39.85959
G1 X51.514 Y117.945 E39.89443
G1 X51.525 Y116.54 E39.95985
G1 X51.577 Y115.567 E40.00522
G1 X51.715 Y114.605 E40.05048
G1 X51.919 Y113.725 E40.09254
G1 X52.244 Y112.731 E40.14124
G1 X52.6 Y111.901 E40.18329
G1 X53.096 Y110.981 E40.23196
G1 X53.634 Y110.169 E40.27732
G1 X54.196 Y109.462 E40.31937
G1 X54.914 Y108.705 E40.36795
G1 X55.591 Y108.107 E40.41001
G1 X56.434 Y107.488 E40.45871
G1 X57.266 Y106.986 E40.50396
G1 F2700 E35.50396
;MESH:power_clip.stl
G0 F6000 X62.927 Y115.974
G0 X62.928 Y117.053
G0 X63.384 Y117.492
G0 X63.145 Y117.731
;TYPE:WALL-INNER
G1 F2700 E40.50396
G1 F1041.2 X171.884 Y117.731 E46.33946
G1 X171.884 Y117.269 E46.36426
G1 X63.145 Y117.27 E52.19976
G1 F1039 X63.145 Y117.731 E52.22455
G0 F6000 X62.714 Y118.162
;TYPE:WALL-OUTER
G1 F1200 X172.314 Y118.161 E57.32799
G1 X172.314 Y116.839 E57.38955
G1 X62.714 Y116.839 E62.49298
G1 X62.714 Y118.162 E62.55459
G1 F2700 E57.55459
;MESH:NOMESH
G0 F300 X62.714 Y118.162 Z0.52
G0 F6000 X63.114 Y118.501
;TIME_ELAPSED:72.919050
;LAYER:1
M106 S85
;TYPE:WALL-INNER
;BRIDGE
;MESH:power_clip.stl
M106 S255
G1 F2700 E62.55459
G1 F750 X171.914 Y118.5 E64.72581
;TYPE:WALL-INNER
M106 S85
G1 F1350 X171.914 Y118.161 E64.73934
G1 X171.914 Y116.838 E64.79214
G1 X171.914 Y116.5 E64.80563
;TYPE:WALL-INNER
;BRIDGE
M106 S255
G1 F750 X63.114 Y116.5 E66.97685
;TYPE:WALL-INNER
M106 S85
G1 F1350 X63.114 Y116.839 E66.99038
G1 X63.114 Y118.162 E67.04319
G1 X63.114 Y118.501 E67.05672
G0 F7500 X62.714 Y118.901
;TYPE:WALL-OUTER
;BRIDGE
M106 S255
G1 F750 X172.314 Y118.9 E69.2439
;TYPE:WALL-OUTER
M106 S85
G1 F1350 X172.314 Y118.161 E69.2734
G1 X172.314 Y116.838 E69.3262
G1 X172.314 Y116.1 E69.35566
;TYPE:WALL-OUTER
;BRIDGE
M106 S255
G1 F750 X62.714 Y116.1 E71.54284
;TYPE:WALL-OUTER
M106 S85
G1 F1350 X62.714 Y116.839 E71.57234
G1 X62.714 Y118.162 E71.62514
G1 X62.714 Y118.901 E71.65464
G0 F7500 X62.984 Y118.631
G0 X63.214 Y118.141
G0 X63.474 Y118.141
;TYPE:SKIN
G1 F1350 X63.474 Y116.86 E71.70577
G1 X171.554 Y116.86 E76.01947
G1 X171.554 Y118.14 E76.07056
G1 X63.474 Y118.141 E80.38427
G0 F7500 X63.214 Y118.141
G0 X63.286 Y116.672
G0 X63.959 Y116.6
G0 X63.959 Y117.059
G1 F1350 X63.674 Y117.345 E80.40038
G0 F7500 X63.674 Y117.91
G1 F1350 X64.525 Y117.059 E80.44842
G0 F7500 X65.091 Y117.059
G1 F1350 X64.21 Y117.94 E80.49814
G0 F7500 X64.775 Y117.94
G1 F1350 X65.656 Y117.059 E80.54787
G0 F7500 X66.222 Y117.059
G1 F1350 X65.341 Y117.94 E80.5976
G0 F7500 X65.907 Y117.94
G1 F1350 X66.788 Y117.059 E80.64733
G0 F7500 X67.354 Y117.059
G1 F1350 X66.472 Y117.94 E80.69708
G0 F7500 X67.038 Y117.94
G1 F1350 X67.919 Y117.059 E80.74681
G0 F7500 X68.485 Y117.059
G1 F1350 X67.604 Y117.94 E80.79654
G0 F7500 X68.17 Y117.94
G1 F1350 X69.051 Y117.059 E80.84626
G0 F7500 X69.616 Y117.059
G1 F1350 X68.735 Y117.94 E80.89599
G0 F7500 X69.301 Y117.94
G1 F1350 X70.182 Y117.059 E80.94572
G0 F7500 X70.748 Y117.059
G1 F1350 X69.867 Y117.94 E80.99545
G0 F7500 X70.432 Y117.94
G1 F1350 X71.313 Y117.059 E81.04517
G0 F7500 X71.879 Y117.059
G1 F1350 X70.998 Y117.94 E81.0949
G0 F7500 X71.564 Y117.94
G1 F1350 X72.445 Y117.059 E81.14463
G0 F7500 X73.01 Y117.059
G1 F1350 X72.129 Y117.94 E81.19436
G0 F7500 X72.695 Y117.94
G1 F1350 X73.576 Y117.059 E81.24408
G0 F7500 X74.142 Y117.059
G1 F1350 X73.261 Y117.94 E81.29381
G0 F7500 X73.826 Y117.94
G1 F1350 X74.707 Y117.059 E81.34354
G0 F7500 X75.273 Y117.059
G1 F1350 X74.392 Y117.94 E81.39327
G0 F7500 X74.958 Y117.94
G1 F1350 X75.839 Y117.059 E81.44299
G0 F7500 X76.405 Y117.059
G1 F1350 X75.523 Y117.94 E81.49275
G0 F7500 X76.089 Y117.94
G1 F1350 X76.97 Y117.059 E81.54248
G0 F7500 X77.536 Y117.059
G1 F1350 X76.655 Y117.94 E81.5922
G0 F7500 X77.221 Y117.94
G1 F1350 X78.102 Y117.059 E81.64193
G0 F7500 X78.667 Y117.059
G1 F1350 X77.786 Y117.94 E81.69166
G0 F7500 X78.352 Y117.94
G1 F1350 X79.233 Y117.059 E81.74139
G0 F7500 X79.799 Y117.059
G1 F1350 X78.918 Y117.94 E81.79111
G0 F7500 X79.483 Y117.94
G1 F1350 X80.364 Y117.059 E81.84084
G0 F7500 X80.93 Y117.059
G1 F1350 X80.049 Y117.94 E81.89057
G0 F7500 X80.615 Y117.94
G1 F1350 X81.496 Y117.059 E81.9403
G0 F7500 X82.061 Y117.059
G1 F1350 X81.18 Y117.94 E81.99002
G0 F7500 X81.746 Y117.94
G1 F1350 X82.627 Y117.059 E82.03975
G0 F7500 X83.193 Y117.059
G1 F1350 X82.312 Y117.94 E82.08948
G0 F7500 X82.877 Y117.94
G1 F1350 X83.758 Y117.059 E82.1392
G0 F7500 X84.324 Y117.059
G1 F1350 X83.443 Y117.94 E82.18893
G0 F7500 X84.009 Y117.94
G1 F1350 X84.89 Y117.059 E82.23866
G0 F7500 X85.455 Y117.059
G1 F1350 X84.574 Y117.94 E82.28839
G0 F7500 X85.14 Y117.94
G1 F1350 X86.021 Y117.059 E82.33811
G0 F7500 X86.587 Y117.059
G1 F1350 X85.706 Y117.94 E82.38784
G0 F7500 X86.271 Y117.94
G1 F1350 X87.153 Y117.059 E82.4376
G0 F7500 X87.718 Y117.059
G1 F1350 X86.837 Y117.94 E82.48733
G0 F7500 X87.403 Y117.94
G1 F1350 X88.284 Y117.059 E82.53705
G0 F7500 X88.85 Y117.059
G1 F1350 X87.969 Y117.94 E82.58678
G0 F7500 X88.534 Y117.94
G1 F1350 X89.415 Y117.059 E82.63651
G0 F7500 X89.981 Y117.059
G1 F1350 X89.1 Y117.94 E82.68624
G0 F7500 X89.666 Y117.94
G1 F1350 X90.547 Y117.059 E82.73596
G0 F7500 X91.112 Y117.059
G1 F1350 X90.231 Y117.94 E82.78569
G0 F7500 X90.797 Y117.94
G1 F1350 X91.678 Y117.059 E82.83542
G0 F7500 X92.244 Y117.059
G1 F1350 X91.363 Y117.94 E82.88514
G0 F7500 X91.928 Y117.94
G1 F1350 X92.809 Y117.059 E82.93487
G0 F7500 X93.375 Y117.059
G1 F1350 X92.494 Y117.94 E82.9846
G0 F7500 X93.06 Y117.94
G1 F1350 X93.941 Y117.059 E83.03433
G0 F7500 X94.506 Y117.059
G1 F1350 X93.625 Y117.94 E83.08405
G0 F7500 X94.191 Y117.94
G1 F1350 X95.072 Y117.059 E83.13378
G0 F7500 X95.638 Y117.059
G1 F1350 X94.757 Y117.94 E83.18351
G0 F7500 X95.322 Y117.94
G1 F1350 X96.203 Y117.059 E83.23324
G0 F7500 X96.769 Y117.059
G1 F1350 X95.888 Y117.94 E83.28296
G0 F7500 X96.454 Y117.94
G1 F1350 X97.335 Y117.059 E83.33269
G0 F7500 X97.901 Y117.059
G1 F1350 X97.02 Y117.94 E83.38242
G0 F7500 X97.585 Y117.94
G1 F1350 X98.466 Y117.059 E83.43215
G0 F7500 X99.032 Y117.059
G1 F1350 X98.151 Y117.94 E83.48187
G0 F7500 X98.717 Y117.94
G1 F1350 X99.598 Y117.059 E83.5316
G0 F7500 X100.163 Y117.059
G1 F1350 X99.282 Y117.94 E83.58133
G0 F7500 X99.848 Y117.94
G1 F1350 X100.729 Y117.059 E83.63106
G0 F7500 X101.295 Y117.059
G1 F1350 X100.414 Y117.94 E83.68078
G0 F7500 X100.979 Y117.94
G1 F1350 X101.86 Y117.059 E83.73051
G0 F7500 X102.426 Y117.059
G1 F1350 X101.545 Y117.94 E83.78024
G0 F7500 X102.111 Y117.94
G1 F1350 X102.992 Y117.059 E83.82997
G0 F7500 X103.557 Y117.059
G1 F1350 X102.676 Y117.94 E83.87969
G0 F7500 X103.242 Y117.94
G1 F1350 X104.123 Y117.059 E83.92942
G0 F7500 X104.689 Y117.059
G1 F1350 X103.808 Y117.94 E83.97915
G0 F7500 X104.373 Y117.94
G1 F1350 X105.254 Y117.059 E84.02888
G0 F7500 X105.82 Y117.059
G1 F1350 X104.939 Y117.94 E84.0786
G0 F7500 X105.505 Y117.94
G1 F1350 X106.386 Y117.059 E84.12833
G0 F7500 X106.952 Y117.059
G1 F1350 X106.07 Y117.94 E84.17809
G0 F7500 X106.636 Y117.94
G1 F1350 X107.517 Y117.059 E84.22781
G0 F7500 X108.083 Y117.059
G1 F1350 X107.202 Y117.94 E84.27754
G0 F7500 X107.768 Y117.94
G1 F1350 X108.649 Y117.059 E84.32727
G0 F7500 X109.214 Y117.059
G1 F1350 X108.333 Y117.94 E84.377
G0 F7500 X108.899 Y117.94
G1 F1350 X109.78 Y117.059 E84.42672
G0 F7500 X110.346 Y117.059
G1 F1350 X109.465 Y117.94 E84.47645
G0 F7500 X110.03 Y117.94
G1 F1350 X110.911 Y117.059 E84.52618
G0 F7500 X111.477 Y117.059
G1 F1350 X110.596 Y117.94 E84.57591
G0 F7500 X111.162 Y117.94
G1 F1350 X112.043 Y117.059 E84.62563
G0 F7500 X112.608 Y117.059
G1 F1350 X111.727 Y117.94 E84.67536
G0 F7500 X112.293 Y117.94
G1 F1350 X113.174 Y117.059 E84.72509
G0 F7500 X113.74 Y117.059
G1 F1350 X112.859 Y117.94 E84.77482
G0 F7500 X113.424 Y117.94
G1 F1350 X114.305 Y117.059 E84.82454
G0 F7500 X114.871 Y117.059
G1 F1350 X113.99 Y117.94 E84.87427
G0 F7500 X114.556 Y117.94
G1 F1350 X115.437 Y117.059 E84.924
G0 F7500 X116.002 Y117.059
G1 F1350 X115.121 Y117.94 E84.97373
G0 F7500 X115.687 Y117.94
G1 F1350 X116.568 Y117.059 E85.02345
G0 F7500 X117.134 Y117.059
G1 F1350 X116.253 Y117.94 E85.07318
G0 F7500 X116.818 Y117.94
G1 F1350 X117.7 Y117.059 E85.12294
G0 F7500 X118.265 Y117.059
G1 F1350 X117.384 Y117.94 E85.17266
G0 F7500 X117.95 Y117.94
G1 F1350 X118.831 Y117.059 E85.22239
G0 F7500 X119.397 Y117.059
G1 F1350 X118.516 Y117.94 E85.27212
G0 F7500 X119.081 Y117.94
G1 F1350 X119.962 Y117.059 E85.32185
G0 F7500 X120.528 Y117.059
G1 F1350 X119.647 Y117.94 E85.37157
G0 F7500 X120.213 Y117.94
G1 F1350 X121.094 Y117.059 E85.4213
G0 F7500 X121.659 Y117.059
G1 F1350 X120.778 Y117.94 E85.47103
G0 F7500 X121.344 Y117.94
