;FLAVOR:Marlin
;TIME:12037
;Filament used: 11.2843m
;Layer height: 0.2
;MINX:11.684
;MINY:9.5
;MINZ:0.2
;MAXX:196.767
;MAXY:225.5
;MAXZ:14.84
;Generated with Cura_SteamEngine main
M140 S50
M105
M190 S50
M104 S200
M105
M109 S200
M82 ;absolute extrusion mode
; Ender 3 Custom Start G-code
G92 E0 ; Reset Extruder
G28 ; Home all axes
G1 Z2.0 F3000 ; Move Z Axis up little to prevent scratching of Heat Bed
G1 X0.1 Y20 Z0.3 F5000.0 ; Move to start position
G1 X0.1 Y200.0 Z0.3 F1500.0 E15 ; Draw the first line
G1 X0.4 Y200.0 Z0.3 F5000.0 ; Move to side a little
G1 X0.4 Y20 Z0.3 F1500.0 E30 ; Draw the second line
G92 E0 ; Reset Extruder
G1 Z2.0 F3000 ; Move Z Axis up little to prevent scratching of Heat Bed
G1 X5 Y20 Z0.3 F5000.0 ; Move over to prevent blob squish
G92 E0
G92 E0
G1 F2700 E-5
;LAYER_COUNT:63
;LAYER:0
M107
G0 F6000 X60.371 Y9.5 Z0.2
;TYPE:SKIRT
G1 F2700 E0
G1 F1200 X59.997 Y9.943 E0.01928
G1 X59.703 Y10.324 E0.03529
G1 X59.292 Y10.896 E0.05872
G1 X58.824 Y11.669 E0.08877
G1 X58.603 Y12.074 E0.10412
G1 X58.347 Y12.576 E0.12286
G1 X57.996 Y13.408 E0.15289
G1 X57.876 Y13.731 E0.16435
G1 X57.637 Y14.454 E0.18968
G1 X57.415 Y15.223 E0.2163
G1 X12.978 Y181.061 E5.92668
G1 X12.791 Y181.8 E5.95203
G1 X12.667 Y182.355 E5.97095
G1 X12.536 Y183.248 E6.00097
G1 X12.484 Y184.15 E6.03102
G1 X12.512 Y185.053 E6.06107
G1 X12.62 Y185.949 E6.09108
G1 X12.806 Y186.833 E6.12113
G1 X13.07 Y187.696 E6.15114
G1 X13.409 Y188.533 E6.18118
G1 X13.821 Y189.337 E6.21123
G1 X14.303 Y190.101 E6.24127
G1 X16.614 Y193.432 E6.37612
G1 X17.964 Y195.533 E6.45918
G1 X19.312 Y197.765 E6.5459
G1 X19.679 Y198.329 E6.56828
G1 X20.228 Y199.046 E6.59832
G1 X20.838 Y199.711 E6.62833
G1 X21.505 Y200.32 E6.65837
G1 X22.223 Y200.868 E6.68841
G1 X22.987 Y201.35 E6.71846
G1 X23.79 Y201.763 E6.74849
G1 X24.627 Y202.103 E6.77854
G1 X25.491 Y202.367 E6.80859
G1 X26.374 Y202.554 E6.83861
G1 X27.085 Y202.672 E6.86258
G1 X176.953 Y225.5 E11.9047
G1 F2700 E6.9047
G0 F6000 X185.86 Y215.036
G0 X186.134 Y214.531
G0 X186.323 Y213.995
G0 X186.43 Y213.424
G0 X186.446 Y212.848
G0 X186.371 Y212.277
G0 X186.207 Y211.727
G0 X185.972 Y211.231
G0 X73.445 Y16.329
G0 X73.134 Y15.876
G0 X72.738 Y15.46
G0 X72.282 Y15.109
G0 X59.847 Y9.5
G1 F2700 E11.9047
G1 F1200 X59.691 Y9.685 E11.91275
G1 X59.386 Y10.08 E11.92935
G1 X58.967 Y10.663 E11.95323
G1 X58.482 Y11.462 E11.98432
G1 X58.252 Y11.882 E12.00024
G1 X57.978 Y12.421 E12.02036
G1 X57.627 Y13.253 E12.05039
G1 X57.501 Y13.592 E12.06242
G1 X57.257 Y14.328 E12.08821
G1 X57.031 Y15.112 E12.11535
G1 X12.592 Y180.957 E17.82597
G1 X12.403 Y181.702 E17.85153
G1 X12.271 Y182.297 E17.8718
G1 X12.14 Y183.19 E17.90182
G1 X12.084 Y184.162 E17.9342
G1 X12.112 Y185.065 E17.96425
G1 X12.223 Y185.997 E17.99547
G1 X12.423 Y186.95 E18.02786
G1 X12.687 Y187.813 E18.05787
G1 X13.038 Y188.683 E18.08907
G1 X13.465 Y189.519 E18.1203
G1 X13.974 Y190.329 E18.15212
G1 X16.277 Y193.648 E18.28648
G1 X17.627 Y195.749 E18.36954
G1 X18.97 Y197.972 E18.45592
G1 X19.361 Y198.572 E18.47974
G1 X19.91 Y199.289 E18.50978
G1 X20.543 Y199.981 E18.54097
G1 X21.262 Y200.638 E18.57336
G1 X21.98 Y201.186 E18.60341
G1 X22.804 Y201.706 E18.63581
G1 X23.639 Y202.134 E18.66702
G1 X24.476 Y202.474 E18.69707
G1 X25.374 Y202.75 E18.72832
G1 X26.291 Y202.945 E18.7595
G1 X27.02 Y203.067 E18.78408
G1 X174.3 Y225.5 E23.73913
G1 F2700 E18.73913
G0 F6000 X185.509 Y215.493
G0 X185.86 Y215.036
G0 X186.134 Y214.531
G0 X186.323 Y213.995
G0 X186.43 Y213.424
G0 X186.446 Y212.848
G0 X186.371 Y212.277
G0 X186.207 Y211.727
G0 X185.972 Y211.231
G0 X73.445 Y16.329
G0 X73.134 Y15.876
G0 X72.738 Y15.46
G0 X72.282 Y15.109
G0 X59.329 Y9.5
G1 F2700 E23.73913
G1 F1200 X59.069 Y9.836 E23.75326
G1 X58.625 Y10.455 E23.7786
G1 X58.14 Y11.254 E23.80969
G1 X57.901 Y11.69 E23.82622
G1 X57.621 Y12.24 E23.84675
G1 X57.258 Y13.098 E23.87774
G1 X57.126 Y13.453 E23.89033
G1 X56.877 Y14.202 E23.91659
G1 X56.647 Y15.001 E23.94424
G1 X12.206 Y180.853 E29.6551
G1 X12.015 Y181.604 E29.68088
G1 X11.88 Y182.21 E29.70152
G1 X11.744 Y183.132 E29.73252
G1 X11.684 Y184.174 E29.76724
G1 X11.712 Y185.077 E29.79729
G1 X11.826 Y186.044 E29.82967
G1 X12.04 Y187.067 E29.86443
G1 X12.304 Y187.93 E29.89445
G1 X12.667 Y188.833 E29.92682
G1 X13.126 Y189.732 E29.96039
G1 X13.635 Y190.542 E29.99221
G1 X15.94 Y193.864 E30.12669
G1 X17.29 Y195.965 E30.20975
G1 X18.628 Y198.179 E30.29579
G1 X19.043 Y198.815 E30.32105
G1 X19.592 Y199.532 E30.35109
G1 X20.248 Y200.251 E30.38346
G1 X21.019 Y200.956 E30.41821
G1 X21.737 Y201.504 E30.44825
G1 X22.622 Y202.062 E30.48305
G1 X23.488 Y202.505 E30.5154
G1 X24.325 Y202.845 E30.54545
G1 X25.256 Y203.132 E30.57785
G1 X26.225 Y203.34 E30.61081
G1 X26.954 Y203.462 E30.6354
G1 X171.647 Y225.5 E35.50341
G1 F2700 E30.50341
G0 F6000 X187.085 Y225.5
G1 F2700 E35.50341
G1 F1200 X187.412 Y225.392 E35.51486
G1 X188.243 Y225.039 E35.54489
G1 X188.677 Y224.832 E35.56088
G1 X189.314 Y224.501 E35.58476
G1 X190.079 Y224.021 E35.6148
G1 X190.45 Y223.765 E35.62979
G1 X191.165 Y223.224 E35.65961
G1 X191.834 Y222.618 E35.68963
G1 X192.242 Y222.214 E35.70873
G1 X192.574 Y221.87 E35.72463
G1 X193.155 Y221.178 E35.75468
G1 X193.38 Y220.885 E35.76697
G1 X193.781 Y220.324 E35.78991
G1 X194.248 Y219.551 E35.81994
G1 X194.468 Y219.147 E35.83525
G1 X194.879 Y218.302 E35.8665
G1 X195.199 Y217.457 E35.89655
G1 X195.378 Y216.913 E35.9156
G1 X195.517 Y216.456 E35.93149
G1 X195.72 Y215.576 E35.96152
G1 X195.789 Y215.202 E35.97417
G1 X195.868 Y214.705 E35.99091
G1 X195.948 Y213.805 E36.02096
G1 X195.967 Y213.379 E36.03515
G1 X195.968 Y212.494 E36.06458
G1 X195.89 Y211.594 E36.09463
G1 X195.825 Y211.1 E36.1112
G1 X195.663 Y210.189 E36.14197
G1 X195.425 Y209.318 E36.17201
G1 X195.25 Y208.772 E36.19108
G1 X194.806 Y207.626 E36.23195
G1 X194.687 Y207.367 E36.24143
G1 X194.336 Y206.676 E36.26721
G1 X193.978 Y206.031 E36.29175
G1 X81.96 Y12.006 E43.74333
G1 X81.609 Y11.421 E43.76602
G1 X81.292 Y10.929 E43.78549
G1 X81.025 Y10.54 E43.80118
G1 X80.469 Y9.805 E43.83184
G1 X80.193 Y9.5 E43.84552
G0 F6000 X80.733 Y9.5
G1 F1200 X81.355 Y10.314 E43.87959
G1 X81.628 Y10.712 E43.89564
G1 X81.952 Y11.215 E43.91554
G1 X82.306 Y11.806 E43.93846
G1 X194.328 Y205.837 E51.39028
G1 X194.693 Y206.495 E51.41531
G1 X195.05 Y207.2 E51.44159
G1 X195.179 Y207.481 E51.45188
G1 X195.631 Y208.65 E51.49356
G1 X195.811 Y209.213 E51.51322
G1 X196.057 Y210.119 E51.54445
G1 X196.222 Y211.048 E51.57583
G1 X196.289 Y211.559 E51.59297
G1 X196.367 Y212.459 E51.62302
G1 X196.367 Y213.397 E51.65421
G1 X196.348 Y213.823 E51.6684
G1 X196.263 Y214.768 E51.69996
G1 X196.182 Y215.275 E51.71703
G1 X196.11 Y215.666 E51.73026
G1 X195.9 Y216.572 E51.76119
G1 X195.758 Y217.038 E51.77739
G1 X195.573 Y217.599 E51.79704
G1 X195.239 Y218.477 E51.82828
G1 X194.828 Y219.322 E51.85953
G1 X194.59 Y219.758 E51.87606
G1 X194.106 Y220.557 E51.90713
G1 X193.697 Y221.129 E51.93051
G1 X193.461 Y221.435 E51.94337
G1 X192.862 Y222.148 E51.97434
G1 X192.523 Y222.498 E51.99055
G1 X192.103 Y222.914 E52.01021
G1 X191.434 Y223.52 E52.04023
G1 X190.677 Y224.094 E52.07183
G1 X190.292 Y224.36 E52.08739
G1 X189.527 Y224.84 E52.11743
G1 X188.849 Y225.193 E52.14285
G1 X188.399 Y225.407 E52.15943
G1 X188.179 Y225.5 E52.16737
G1 F2700 E47.16737
G0 F6000 X186.371 Y212.277
G0 X186.224 Y211.782
G0 X81.241 Y9.5
G1 F2700 E52.16737
G1 F1200 X81.685 Y10.088 E52.19188
G1 X81.964 Y10.495 E52.20829
G1 X82.295 Y11.009 E52.22862
G1 X82.652 Y11.606 E52.25176
G1 X194.678 Y205.643 E59.70382
G1 X195.05 Y206.314 E59.72934
G1 X195.414 Y207.033 E59.75615
G1 X195.543 Y207.314 E59.76643
G1 X196.012 Y208.528 E59.80972
G1 X196.197 Y209.108 E59.82996
G1 X196.451 Y210.049 E59.86238
G1 X196.619 Y210.996 E59.89437
G1 X196.688 Y211.524 E59.91208
G1 X196.766 Y212.424 E59.94213
G1 X196.767 Y213.415 E59.97509
G1 X196.748 Y213.841 E59.98927
G1 X196.658 Y214.831 E60.02234
G1 X196.575 Y215.347 E60.03972
G1 X196.5 Y215.756 E60.05355
G1 X196.283 Y216.689 E60.08541
G1 X196.138 Y217.163 E60.1019
G1 X195.947 Y217.741 E60.12214
G1 X195.599 Y218.652 E60.15458
G1 X195.179 Y219.514 E60.18647
G1 X194.932 Y219.965 E60.20357
G1 X194.431 Y220.79 E60.23568
G1 X194.014 Y221.373 E60.25952
G1 X193.767 Y221.692 E60.27293
G1 X193.168 Y222.405 E60.30391
G1 X192.804 Y222.782 E60.32134
G1 X192.372 Y223.21 E60.34156
G1 X191.676 Y223.839 E60.37276
G1 X190.919 Y224.413 E60.40436
G1 X190.505 Y224.699 E60.4211
G1 X189.712 Y225.195 E60.45221
G1 X189.125 Y225.5 E60.47421
G1 F2700 E55.47421
;MESH:spool_holder_side.stl
G0 F6000 X183.622 Y216.603
G0 X182.524 Y215.423
;TYPE:WALL-INNER
G1 F2700 E60.47421
G1 F1200 X182.902 Y215.435 E60.48679
G1 X183.284 Y215.384 E60.49961
G1 X183.637 Y215.28 E60.51185
G1 X183.985 Y215.116 E60.52464
G1 X184.293 Y214.904 E60.53708
G1 X184.563 Y214.645 E60.54952
G1 X184.798 Y214.341 E60.5623
G1 X184.973 Y214.017 E60.57455
G1 X185.099 Y213.659 E60.58717
G1 X185.168 Y213.291 E60.59963
G1 X185.18 Y212.919 E60.612
G1 X185.128 Y212.536 E60.62486
G1 X185.024 Y212.185 E60.63704
G1 X184.851 Y211.819 E60.6505
G1 X72.374 Y17.005 E68.13245
G1 X72.149 Y16.676 E68.1457
G1 X71.89 Y16.406 E68.15815
G1 X71.587 Y16.172 E68.17088
G1 X71.263 Y15.995 E68.18316
G1 X70.897 Y15.866 E68.19607
G1 X70.545 Y15.802 E68.20797
G1 X70.169 Y15.79 E68.22048
G1 X69.78 Y15.841 E68.23353
G1 X69.437 Y15.941 E68.24541
G1 X69.089 Y16.106 E68.25822
G1 X68.772 Y16.326 E68.27106
G1 X68.508 Y16.575 E68.28313
G1 X68.274 Y16.879 E68.29588
G1 X68.097 Y17.206 E68.30825
G1 X67.96 Y17.592 E68.32188
G1 X23.526 Y183.421 E74.03194
G1 X24.343 Y183.331 E74.05928
G1 X25.068 Y183.361 E74.08341
G1 X25.607 Y183.442 E74.10154
G1 X26.088 Y183.559 E74.118
G1 X26.603 Y183.734 E74.13609
G1 X27.11 Y183.965 E74.15462
G1 X27.503 Y184.19 E74.16969
G1 X27.995 Y184.528 E74.18954
G1 X28.443 Y184.929 E74.20954
G1 X28.723 Y185.222 E74.22302
G1 X29.069 Y185.657 E74.2415
G1 X29.383 Y186.137 E74.26058
G1 X29.587 Y186.523 E74.2751
G1 X29.794 Y186.999 E74.29237
G1 X29.959 Y187.555 E74.31166
G1 X30.038 Y187.909 E74.32372
G1 X30.111 Y188.448 E74.34181
G1 X30.131 Y189.036 E74.36138
G1 X30.098 Y189.562 E74.37891
G1 X29.997 Y190.152 E74.39882
G1 X29.854 Y190.677 E74.41692
G1 X29.659 Y191.192 E74.43523
G1 X29.386 Y191.746 E74.45577
G1 X29.172 Y192.066 E74.46858
G1 X182.524 Y215.423 E79.62791
G1 F2700 E74.62791
G0 F6000 X182.533 Y215.322
G0 X176.088 Y214.259
G0 X176.756 Y209.882
G0 X177.034 Y209.669
G1 F2700 E79.62791
G1 F1200 X176.741 Y209.697 E79.6377
G1 X35.093 Y188.122 E84.40326
G1 X34.796 Y187.915 E84.41531
G1 X29.742 Y179.161 E84.7515
G1 X29.705 Y178.9 E84.76027
G1 X70.681 Y25.974 E90.02604
G1 X70.807 Y25.81 E90.03291
G1 X71.039 Y25.665 E90.04201
G1 X71.446 Y25.598 E90.05573
G1 X71.753 Y25.685 E90.06635
G1 X71.917 Y25.809 E90.07318
G1 X177.519 Y208.717 E97.09786
G1 X177.549 Y208.911 E97.10439
G1 X177.501 Y209.169 E97.11311
G1 X177.291 Y209.501 E97.12618
G1 X177.034 Y209.669 E97.13639
G0 F6000 X176.837 Y209.306
;TYPE:WALL-OUTER
G1 F1200 X35.199 Y187.728 E101.90165
G1 X35.118 Y187.673 E101.9049
G1 X30.121 Y179.02 E102.23724
G1 X30.113 Y178.932 E102.24018
G1 X71.039 Y26.182 E107.49986
G1 X71.168 Y26.044 E107.50614
G1 X71.465 Y26.005 E107.51611
G1 X71.608 Y26.072 E107.52136
G1 X177.141 Y208.862 E114.54149
G1 X177.146 Y208.971 E114.54512
G1 X176.974 Y209.245 E114.55588
G1 X176.837 Y209.306 E114.56086
G1 F2700 E109.56086
G0 F6000 X176.761 Y209.802
G0 X174.741 Y209.555
G0 X176.672 Y214.329
G0 X182.487 Y215.822
G1 F2700 E114.56086
G1 F1200 X182.922 Y215.836 E114.57534
G1 X183.368 Y215.776 E114.59031
G1 X183.78 Y215.655 E114.60459
G1 X184.185 Y215.464 E114.61948
G1 X184.546 Y215.216 E114.63405
G1 X184.861 Y214.913 E114.64859
G1 X185.134 Y214.56 E114.66343
G1 X185.34 Y214.18 E114.67781
G1 X185.487 Y213.762 E114.69254
G1 X185.567 Y213.334 E114.70702
G1 X185.581 Y212.899 E114.7215
G1 X185.52 Y212.452 E114.73651
G1 X185.398 Y212.041 E114.75076
G1 X185.205 Y211.633 E114.76578
G1 X72.713 Y16.792 E122.24875
G1 X72.461 Y16.423 E122.26361
G1 X72.158 Y16.108 E122.27815
G1 X71.806 Y15.836 E122.29294
G1 X71.426 Y15.629 E122.30734
G1 X71 Y15.478 E122.32237
G1 X70.587 Y15.403 E122.33633
G1 X70.149 Y15.389 E122.35091
G1 X69.698 Y15.448 E122.36603
G1 X69.294 Y15.566 E122.38003
G1 X68.888 Y15.759 E122.39498
G1 X68.52 Y16.014 E122.40988
G1 X68.21 Y16.305 E122.42402
G1 X67.938 Y16.66 E122.43889
G1 X67.73 Y17.043 E122.45339
G1 X67.578 Y17.474 E122.46859
G1 X22.965 Y183.968 E128.20156
G1 X23.622 Y183.809 E128.22404
G1 X24.371 Y183.733 E128.24908
G1 X25.01 Y183.757 E128.27035
G1 X25.513 Y183.831 E128.28726
G1 X26.012 Y183.953 E128.30434
G1 X26.473 Y184.112 E128.32056
G1 X26.958 Y184.336 E128.33833
G1 X27.279 Y184.522 E128.35067
G1 X27.728 Y184.826 E128.3687
G1 X28.188 Y185.239 E128.38927
G1 X28.432 Y185.497 E128.40108
G1 X28.755 Y185.905 E128.41838
G1 X29.039 Y186.343 E128.43575
G1 X29.22 Y186.683 E128.44856
G1 X29.418 Y187.137 E128.46503
G1 X29.569 Y187.642 E128.48256
G1 X29.651 Y188.014 E128.49523
G1 X29.714 Y188.5 E128.51153
G1 X29.731 Y189.037 E128.5294
G1 X29.7 Y189.522 E128.54557
G1 X29.611 Y190.048 E128.56331
G1 X29.485 Y190.519 E128.57953
G1 X29.3 Y191.015 E128.59713
G1 X29.012 Y191.595 E128.61867
G1 X28.663 Y192.098 E128.63903
G1 X28.442 Y192.359 E128.65041
G1 X182.487 Y215.822 E133.83306
G1 F2700 E128.83306
G0 F6000 X182.533 Y215.322
G0 X176.159 Y214.27
G0 X176.827 Y209.893
G0 X176.854 Y210.078
;TYPE:SKIN
G1 F2700 E133.83306
G1 F1200 X177.164 Y210.008 E133.84363
G1 X177.506 Y209.792 E133.85708
G1 X177.79 Y209.41 E133.87291
G1 X177.896 Y209.113 E133.8834
G1 X177.875 Y208.612 E133.90008
G1 X72.196 Y25.573 E140.92981
G1 X71.926 Y25.365 E140.94114
G1 X71.522 Y25.245 E140.95516
G1 X71.025 Y25.288 E140.97175
G1 X70.727 Y25.412 E140.98249
G1 X70.431 Y25.715 E140.99657
G1 X70.305 Y25.983 E141.00642
G1 X29.386 Y178.7 E146.26498
G1 X29.356 Y178.989 E146.27465
G1 X29.397 Y179.287 E146.28465
G1 X34.525 Y188.156 E146.62539
G1 X34.744 Y188.344 E146.63499
G1 X35.011 Y188.474 E146.64487
G1 X176.854 Y210.078 E151.41699
G1 F2700 E146.41699
G0 F6000 X176.839 Y209.814
G0 X174.741 Y209.555
G0 X176.672 Y214.329
G0 X182.555 Y215.062
G1 F2700 E151.41699
G1 F1200 X29.763 Y191.792 E156.55748
G1 X30.011 Y191.287 E156.57619
G1 X30.196 Y190.786 E156.59395
G1 X30.361 Y190.171 E156.61513
G1 X30.456 Y189.605 E156.63422
G1 X30.49 Y189.092 E156.65132
G1 X30.468 Y188.393 E156.67458
G1 X30.395 Y187.848 E156.69287
G1 X30.291 Y187.395 E156.70833
G1 X30.138 Y186.891 E156.72584
G1 X29.915 Y186.375 E156.74454
G1 X29.694 Y185.954 E156.76036
G1 X29.351 Y185.43 E156.78119
G1 X28.991 Y184.981 E156.80033
G1 X28.686 Y184.661 E156.81503
G1 X28.193 Y184.222 E156.83699
G1 X27.708 Y183.893 E156.85648
G1 X27.325 Y183.67 E156.87122
G1 X26.742 Y183.401 E156.89257
G1 X26.187 Y183.212 E156.91207
G1 X25.689 Y183.092 E156.92911
G1 X25.127 Y183.006 E156.94802
G1 X24.316 Y182.972 E156.97502
G1 X24.009 Y183.004 E156.98529
G1 X68.302 Y17.712 E162.67688
G1 X68.428 Y17.352 E162.68957
G1 X68.578 Y17.076 E162.70002
G1 X68.775 Y16.819 E162.71079
G1 X69.001 Y16.608 E162.72107
G1 X69.272 Y16.418 E162.73208
G1 X69.569 Y16.279 E162.74299
G1 X69.849 Y16.197 E162.75269
G1 X70.191 Y16.151 E162.76417
G1 X70.51 Y16.162 E162.77478
G1 X70.794 Y16.213 E162.78438
G1 X71.118 Y16.328 E162.79581
G1 X71.386 Y16.474 E162.80597
G1 X71.654 Y16.681 E162.81723
G1 X71.869 Y16.904 E162.82753
G1 X72.066 Y17.192 E162.83914
G1 X184.537 Y211.998 E170.32075
G1 X184.685 Y212.314 E170.33236
G1 X184.776 Y212.617 E170.34288
G1 X184.82 Y212.933 E170.35349
G1 X184.808 Y213.253 E170.36414
G1 X184.75 Y213.563 E170.37463
G1 X184.644 Y213.87 E170.38544
G1 X184.497 Y214.14 E170.39566
G1 X184.288 Y214.408 E170.40696
G1 X184.068 Y214.619 E170.4171
G1 X183.797 Y214.807 E170.42807
G1 X183.511 Y214.941 E170.43858
G1 X183.217 Y215.028 E170.44878
G1 X182.879 Y215.073 E170.46012
G1 X182.555 Y215.062 E170.4709
G1 F2700 E165.4709
G0 F6000 X182.514 Y215.319
G0 X29.489 Y191.935
G0 X29.801 Y191.111
G0 X30.177 Y191.398
G1 F2700 E170.4709
G1 F1200 X30.477 Y191.697 E170.48499
G0 F6000 X31.143 Y191.798
G1 F1200 X30.334 Y190.988 E170.52306
G0 F6000 X30.463 Y190.552
G1 F1200 X31.811 Y191.9 E170.58647
G0 F6000 X32.478 Y192.002
