;FLAVOR:Marlin
;TIME:2463
;Filament used: 1.25205m
;Layer height: 0.12
;MINX:81.509
;MINY:81.51
;MINZ:0.12
;MAXX:153.491
;MAXY:153.49
;MAXZ:3.96
;Generated with Cura_SteamEngine main
M140 S50
M105
M190 S50
M104 S200
M105
M109 S200
M82 ;absolute extrusion mode
; Ender 3 Custom Start G-code
G92 E0 ; Reset Extruder
G28 ; Home all axes
G1 Z2.0 F3000 ; Move Z Axis up little to prevent scratching of Heat Bed
G1 X0.1 Y20 Z0.3 F5000.0 ; Move to start position
G1 X0.1 Y200.0 Z0.3 F1500.0 E15 ; Draw the first line
G1 X0.4 Y200.0 Z0.3 F5000.0 ; Move to side a little
G1 X0.4 Y20 Z0.3 F1500.0 E30 ; Draw the second line
G92 E0 ; Reset Extruder
G1 Z2.0 F3000 ; Move Z Axis up little to prevent scratching of Heat Bed
G1 X5 Y20 Z0.3 F5000.0 ; Move over to prevent blob squish
G92 E0
G92 E0
G1 F2700 E-5
;LAYER_COUNT:26
;LAYER:0
M107
G0 F6000 X92.239 Y92.999 Z0.12
;TYPE:SKIRT
G1 F2700 E0
G1 F1200 X93.167 Y92.075 E0.02613
G1 X93.621 Y91.648 E0.03857
G1 X94.486 Y90.874 E0.06174
G1 X95.208 Y90.268 E0.08055
G1 X95.524 Y90.014 E0.08864
G1 X96.417 Y89.323 E0.11117
G1 X96.879 Y88.98 E0.12265
G1 X97.743 Y88.38 E0.14364
G1 X98.792 Y87.698 E0.16861
G1 X99.095 Y87.51 E0.17573
G1 X100.067 Y86.937 E0.19825
G1 X101.076 Y86.382 E0.22123
G1 X102.093 Y85.862 E0.24402
G1 X102.808 Y85.521 E0.25983
G1 X103.736 Y85.11 E0.28008
G1 X104.087 Y84.964 E0.28767
G1 X105.285 Y84.498 E0.31332
G1 X106.259 Y84.155 E0.33393
G1 X106.646 Y84.028 E0.34206
G1 X107.799 Y83.673 E0.36613
G1 X108.326 Y83.526 E0.37705
G1 X109.577 Y83.219 E0.40276
G1 X110.78 Y82.962 E0.42731
G1 X111.147 Y82.891 E0.43477
G1 X112.151 Y82.721 E0.45509
G1 X113.33 Y82.562 E0.47883
G1 X114.47 Y82.444 E0.5017
G1 X115.653 Y82.357 E0.52537
G1 X116.073 Y82.337 E0.53376
G1 X117.064 Y82.31 E0.55355
G1 X117.992 Y82.31 E0.57207
G1 X119.186 Y82.351 E0.59591
G1 X120.208 Y82.417 E0.61635
G1 X121.635 Y82.555 E0.64496
G1 X122.703 Y82.693 E0.66645
G1 X123.13 Y82.759 E0.67507
G1 X124.424 Y82.995 E0.70132
G1 X125.362 Y83.199 E0.72047
G1 X126.664 Y83.524 E0.74725
G1 X127.499 Y83.759 E0.76456
G1 X128.221 Y83.981 E0.77964
G1 X129.45 Y84.404 E0.80558
G1 X129.776 Y84.524 E0.81251
G1 X131.056 Y85.025 E0.83994
G1 X131.85 Y85.367 E0.85719
G1 X132.715 Y85.768 E0.87622
G1 X133.669 Y86.24 E0.89746
G1 X134.264 Y86.553 E0.91088
G1 X134.913 Y86.916 E0.92572
G1 X135.843 Y87.464 E0.94726
G1 X136.224 Y87.7 E0.9562
G1 X137.164 Y88.318 E0.97865
G1 X138.338 Y89.142 E1.00727
G1 X138.974 Y89.617 E1.02312
G1 X139.584 Y90.098 E1.03862
G1 X140.371 Y90.749 E1.059
G1 X140.765 Y91.094 E1.06945
G1 X141.723 Y91.97 E1.09536
G1 X142.416 Y92.645 E1.11466
G1 X142.715 Y92.949 E1.12317
G1 X143.292 Y93.56 E1.13994
G1 X144.173 Y94.549 E1.16637
G1 X144.388 Y94.8 E1.17297
G1 X145.115 Y95.684 E1.19581
G1 X145.599 Y96.309 E1.21159
G1 X145.955 Y96.791 E1.22354
G1 X146.637 Y97.762 E1.24722
G1 X147.093 Y98.453 E1.26374
G1 X147.466 Y99.046 E1.27772
G1 X147.939 Y99.841 E1.29619
G1 X148.59 Y101.018 E1.32303
G1 X148.76 Y101.34 E1.33029
G1 X149.255 Y102.331 E1.3524
G1 X149.602 Y103.075 E1.36878
G1 X149.892 Y103.734 E1.38315
G1 X150.155 Y104.375 E1.39698
G1 X150.519 Y105.332 E1.41741
G1 X150.949 Y106.57 E1.44356
G1 X151.184 Y107.315 E1.45915
G1 X151.482 Y108.362 E1.48088
G1 X151.567 Y108.687 E1.48758
G1 X151.874 Y109.958 E1.51367
G1 X152.004 Y110.566 E1.52608
G1 X152.242 Y111.888 E1.55289
G1 X152.299 Y112.253 E1.56026
G1 X152.444 Y113.336 E1.58207
G1 X152.545 Y114.301 E1.60143
G1 X152.604 Y115.052 E1.61646
G1 X152.673 Y116.492 E1.64523
G1 X152.691 Y117.708 E1.6695
G1 X152.68 Y118.494 E1.68519
G1 X152.656 Y119.148 E1.69825
G1 X152.597 Y120.072 E1.71672
G1 X152.455 Y121.554 E1.74644
G1 X152.304 Y122.704 E1.76958
G1 X152.134 Y123.73 E1.79034
G1 X151.923 Y124.822 E1.81253
G1 X151.836 Y125.229 E1.82084
G1 X151.598 Y126.206 E1.8409
G1 X151.249 Y127.458 E1.86684
G1 X150.852 Y128.727 E1.89338
G1 X150.656 Y129.297 E1.9054
G1 X150.298 Y130.261 E1.92593
G1 X149.87 Y131.31 E1.94854
G1 X149.438 Y132.285 E1.96982
G1 X149.152 Y132.883 E1.98305
G1 X148.698 Y133.781 E2.00313
G1 X148.197 Y134.713 E2.02424
G1 X147.781 Y135.433 E2.04084
G1 X147.288 Y136.235 E2.05962
G1 X146.705 Y137.132 E2.08097
G1 X146.06 Y138.061 E2.10354
G1 X145.604 Y138.684 E2.11895
G1 X144.89 Y139.599 E2.14211
G1 X144.422 Y140.168 E2.15681
G1 X143.856 Y140.825 E2.17412
G1 X143.299 Y141.438 E2.19065
G1 X142.766 Y141.997 E2.20606
G1 X142.028 Y142.736 E2.2269
G1 X141.572 Y143.175 E2.23953
G1 X140.802 Y143.876 E2.26031
G1 X140.504 Y144.136 E2.26821
G1 X139.781 Y144.741 E2.28702
G1 X139.478 Y144.984 E2.29477
G1 X138.363 Y145.843 E2.32286
G1 X137.897 Y146.179 E2.33432
G1 X136.995 Y146.796 E2.35613
G1 X136.207 Y147.304 E2.37484
G1 X135.251 Y147.882 E2.39714
G1 X134.935 Y148.063 E2.4044
G1 X133.612 Y148.784 E2.43447
G1 X132.908 Y149.139 E2.45021
G1 X132.184 Y149.483 E2.4662
G1 X131.276 Y149.886 E2.48603
G1 X130.758 Y150.103 E2.49723
G1 X129.978 Y150.406 E2.51393
G1 X128.738 Y150.846 E2.54019
G1 X128.354 Y150.972 E2.54826
G1 X127.201 Y151.327 E2.57233
G1 X126.674 Y151.474 E2.58325
G1 X125.423 Y151.781 E2.60896
G1 X124.22 Y152.038 E2.6335
G1 X123.853 Y152.109 E2.64096
G1 X122.849 Y152.279 E2.66129
G1 X121.67 Y152.438 E2.68503
G1 X120.53 Y152.556 E2.7079
G1 X119.347 Y152.643 E2.73157
G1 X118.927 Y152.663 E2.73996
G1 X117.936 Y152.69 E2.75974
G1 X117.008 Y152.69 E2.77826
G1 X115.814 Y152.649 E2.80211
G1 X114.792 Y152.583 E2.82254
G1 X113.365 Y152.445 E2.85115
G1 X112.297 Y152.307 E2.87264
G1 X111.87 Y152.241 E2.88127
G1 X110.576 Y152.005 E2.90752
G1 X109.638 Y151.801 E2.92667
G1 X108.336 Y151.476 E2.95345
G1 X107.501 Y151.241 E2.97076
G1 X106.779 Y151.019 E2.98584
G1 X105.55 Y150.596 E3.01177
G1 X105.224 Y150.476 E3.01871
G1 X103.944 Y149.975 E3.04614
G1 X103.15 Y149.633 E3.06339
G1 X102.285 Y149.232 E3.08242
G1 X101.548 Y148.87 E3.0988
G1 X100.725 Y148.441 E3.11732
G1 X100.084 Y148.082 E3.13199
G1 X99.16 Y147.538 E3.15338
G1 X98.776 Y147.3 E3.1624
G1 X97.836 Y146.682 E3.18485
G1 X96.662 Y145.858 E3.21347
G1 X96.026 Y145.383 E3.22931
G1 X95.414 Y144.901 E3.24486
G1 X94.82 Y144.412 E3.26021
G1 X94.409 Y144.06 E3.27101
G1 X93.547 Y143.283 E3.29417
G1 X93.276 Y143.029 E3.30158
G1 X92.584 Y142.355 E3.32086
G1 X92.285 Y142.052 E3.32936
G1 X91.707 Y141.44 E3.34615
G1 X90.826 Y140.451 E3.37259
G1 X89.882 Y139.312 E3.40211
G1 X89.401 Y138.691 E3.41778
G1 X89.045 Y138.209 E3.42974
G1 X88.516 Y137.462 E3.44801
G1 X87.907 Y136.547 E3.46994
G1 X87.534 Y135.954 E3.48392
G1 X87.061 Y135.159 E3.50238
G1 X86.411 Y133.985 E3.52916
G1 X86.237 Y133.654 E3.53663
G1 X85.745 Y132.669 E3.5586
G1 X85.356 Y131.83 E3.57705
G1 X84.995 Y130.993 E3.59524
G1 X84.845 Y130.625 E3.60318
G1 X84.481 Y129.668 E3.62361
G1 X84.051 Y128.43 E3.64976
G1 X83.816 Y127.685 E3.66535
G1 X83.518 Y126.638 E3.68707
G1 X83.433 Y126.313 E3.69378
G1 X83.126 Y125.042 E3.71987
G1 X82.996 Y124.434 E3.73228
G1 X82.874 Y123.803 E3.74511
G1 X82.74 Y123.01 E3.76115
G1 X82.591 Y121.953 E3.78246
G1 X82.483 Y120.999 E3.80162
G1 X82.396 Y119.949 E3.82264
G1 X82.327 Y118.508 E3.85143
G1 X82.309 Y117.292 E3.8757
G1 X82.339 Y115.992 E3.90165
G1 X82.358 Y115.599 E3.9095
G1 X82.43 Y114.599 E3.92951
G1 X82.545 Y113.446 E3.95263
G1 X82.655 Y112.571 E3.97023
G1 X82.815 Y111.561 E3.99064
G1 X83.077 Y110.18 E4.01869
G1 X83.164 Y109.771 E4.02704
G1 X83.402 Y108.794 E4.0471
G1 X83.751 Y107.542 E4.07304
G1 X84.148 Y106.273 E4.09958
G1 X84.344 Y105.703 E4.1116
G1 X84.702 Y104.739 E4.13213
G1 X85.13 Y103.69 E4.15473
G1 X85.562 Y102.715 E4.17602
G1 X85.85 Y102.114 E4.18932
G1 X86.45 Y100.937 E4.21568
G1 X86.946 Y100.033 E4.23626
G1 X87.219 Y99.567 E4.24703
G1 X87.712 Y98.765 E4.26582
G1 X88.295 Y97.868 E4.28717
G1 X88.94 Y96.939 E4.30974
G1 X89.396 Y96.316 E4.32515
G1 X90.109 Y95.402 E4.34828
G1 X90.729 Y94.653 E4.36768
G1 X91.144 Y94.175 E4.38032
G1 X91.701 Y93.562 E4.39685
G1 X92.239 Y92.999 E4.41239
G0 F6000 X91.957 Y92.716
G1 F1200 X92.893 Y91.784 E4.43875
G1 X93.354 Y91.35 E4.45138
G1 X94.229 Y90.568 E4.4748
G1 X94.957 Y89.956 E4.49378
G1 X95.279 Y89.698 E4.50201
G1 X96.179 Y89.002 E4.52472
G1 X96.651 Y88.651 E4.53646
G1 X97.525 Y88.045 E4.55768
G1 X98.581 Y87.358 E4.58282
G1 X98.892 Y87.165 E4.59013
G1 X99.874 Y86.587 E4.61286
G1 X100.894 Y86.026 E4.6361
G1 X101.921 Y85.501 E4.65911
G1 X102.646 Y85.155 E4.67514
G1 X103.582 Y84.741 E4.69557
G1 X103.942 Y84.591 E4.70335
G1 X105.152 Y84.121 E4.72926
G1 X106.134 Y83.775 E4.75003
G1 X106.528 Y83.646 E4.75831
G1 X107.692 Y83.288 E4.78261
G1 X108.231 Y83.138 E4.79378
G1 X109.493 Y82.828 E4.81971
G1 X110.704 Y82.569 E4.84442
G1 X111.08 Y82.497 E4.85206
G1 X112.098 Y82.325 E4.87266
G1 X113.289 Y82.164 E4.89665
G1 X114.441 Y82.045 E4.91976
G1 X115.634 Y81.957 E4.94363
G1 X116.062 Y81.937 E4.95218
G1 X117.053 Y81.91 E4.97197
G1 X118.006 Y81.91 E4.99099
G1 X119.212 Y81.952 E5.01507
G1 X120.247 Y82.019 E5.03576
G1 X121.686 Y82.158 E5.06462
G1 X122.764 Y82.298 E5.08631
G1 X123.202 Y82.365 E5.09515
G1 X124.509 Y82.604 E5.12167
G1 X125.459 Y82.811 E5.14107
G1 X126.772 Y83.139 E5.16808
G1 X127.617 Y83.377 E5.1856
G1 X128.351 Y83.603 E5.20092
G1 X129.588 Y84.029 E5.22703
G1 X129.922 Y84.152 E5.23413
G1 X131.214 Y84.658 E5.26182
G1 X132.018 Y85.004 E5.27929
G1 X132.892 Y85.409 E5.29851
G1 X133.855 Y85.886 E5.31996
G1 X134.459 Y86.204 E5.33358
G1 X135.116 Y86.571 E5.3486
G1 X136.054 Y87.124 E5.37033
G1 X136.444 Y87.366 E5.37949
G1 X137.394 Y87.991 E5.40218
G1 X138.577 Y88.822 E5.43103
G1 X139.222 Y89.303 E5.44709
G1 X139.839 Y89.79 E5.46278
G1 X140.635 Y90.448 E5.48339
G1 X141.035 Y90.799 E5.49401
G1 X142.002 Y91.683 E5.52015
G1 X142.701 Y92.365 E5.53964
G1 X143.006 Y92.674 E5.5483
G1 X143.591 Y93.294 E5.56532
G1 X144.477 Y94.289 E5.5919
G1 X144.697 Y94.546 E5.59865
G1 X145.431 Y95.439 E5.62172
G1 X145.921 Y96.071 E5.63768
G1 X146.282 Y96.561 E5.64983
G1 X146.971 Y97.542 E5.67375
G1 X147.432 Y98.24 E5.69044
G1 X147.81 Y98.841 E5.70461
G1 X148.289 Y99.647 E5.72332
G1 X148.944 Y100.831 E5.75033
G1 X149.118 Y101.161 E5.75777
G1 X149.618 Y102.162 E5.7801
G1 X149.968 Y102.914 E5.79665
G1 X150.262 Y103.582 E5.81122
G1 X150.529 Y104.233 E5.82526
G1 X150.897 Y105.201 E5.84593
G1 X151.33 Y106.45 E5.87231
G1 X151.569 Y107.205 E5.88811
G1 X151.869 Y108.261 E5.91002
G1 X151.956 Y108.593 E5.91687
G1 X152.265 Y109.874 E5.94316
G1 X152.398 Y110.495 E5.95584
G1 X152.637 Y111.826 E5.98282
G1 X152.695 Y112.2 E5.99038
G1 X152.842 Y113.294 E6.0124
G1 X152.944 Y114.27 E6.03199
G1 X153.004 Y115.033 E6.04726
G1 X153.073 Y116.486 E6.07629
G1 X153.091 Y117.714 E6.1008
G1 X153.08 Y118.509 E6.11666
G1 X153.055 Y119.173 E6.12992
G1 X152.995 Y120.11 E6.14866
G1 X152.852 Y121.606 E6.17865
G1 X152.699 Y122.769 E6.20206
G1 X152.527 Y123.806 E6.22304
G1 X152.314 Y124.906 E6.2454
G1 X152.225 Y125.324 E6.25393
G1 X151.987 Y126.301 E6.27399
G1 X151.631 Y127.577 E6.30043
G1 X151.23 Y128.857 E6.3272
G1 X151.031 Y129.436 E6.33942
G1 X150.668 Y130.412 E6.3602
G1 X150.236 Y131.472 E6.38304
G1 X149.799 Y132.458 E6.40456
G1 X149.509 Y133.063 E6.41795
G1 X149.05 Y133.97 E6.43824
G1 X148.543 Y134.913 E6.4596
G1 X148.122 Y135.642 E6.4764
G1 X147.623 Y136.453 E6.49541
G1 X147.034 Y137.36 E6.51699
G1 X146.383 Y138.297 E6.53976
G1 X145.919 Y138.93 E6.55542
G1 X145.199 Y139.853 E6.57878
G1 X144.725 Y140.429 E6.59367
G1 X144.152 Y141.094 E6.61118
G1 X143.588 Y141.714 E6.62791
G1 X143.049 Y142.28 E6.64351
G1 X142.305 Y143.024 E6.6645
G1 X141.841 Y143.471 E6.67736
G1 X141.065 Y144.177 E6.6983
G1 X140.761 Y144.443 E6.70636
G1 X140.031 Y145.053 E6.72534
G1 X139.722 Y145.301 E6.73325
G1 X138.597 Y146.167 E6.76158
G1 X138.123 Y146.509 E6.77325
G1 X137.212 Y147.132 E6.79527
G1 X136.414 Y147.646 E6.81421
G1 X135.45 Y148.229 E6.8367
G1 X135.126 Y148.414 E6.84414
G1 X133.792 Y149.141 E6.87446
G1 X133.08 Y149.5 E6.89037
G1 X132.346 Y149.849 E6.90659
G1 X131.431 Y150.255 E6.92657
G1 X130.903 Y150.476 E6.93799
G1 X130.112 Y150.783 E6.95492
G1 X128.863 Y151.226 E6.98137
G1 X128.472 Y151.354 E6.98958
G1 X127.308 Y151.712 E7.01388
G1 X126.769 Y151.862 E7.02505
G1 X125.507 Y152.172 E7.05098
G1 X124.296 Y152.431 E7.07569
G1 X123.92 Y152.503 E7.08333
G1 X122.902 Y152.675 E7.10394
G1 X121.711 Y152.836 E7.12792
G1 X120.559 Y152.955 E7.15103
G1 X119.366 Y153.043 E7.17491
G1 X118.938 Y153.063 E7.18346
G1 X117.947 Y153.09 E7.20324
G1 X116.994 Y153.09 E7.22226
G1 X115.788 Y153.048 E7.24634
G1 X114.753 Y152.981 E7.26704
G1 X113.314 Y152.842 E7.29589
G1 X112.236 Y152.702 E7.31758
G1 X111.798 Y152.635 E7.32642
G1 X110.491 Y152.396 E7.35294
G1 X109.541 Y152.189 E7.37234
G1 X108.228 Y151.861 E7.39935
G1 X107.383 Y151.623 E7.41687
G1 X106.649 Y151.397 E7.43219
G1 X105.412 Y150.971 E7.4583
G1 X105.078 Y150.848 E7.46541
G1 X103.786 Y150.342 E7.4931
G1 X102.982 Y149.996 E7.51056
G1 X102.109 Y149.591 E7.52977
G1 X101.363 Y149.225 E7.54635
G1 X100.53 Y148.79 E7.5651
G1 X99.881 Y148.427 E7.57994
G1 X98.949 Y147.878 E7.60153
G1 X98.556 Y147.634 E7.61076
G1 X97.606 Y147.009 E7.63345
G1 X96.423 Y146.178 E7.66231
G1 X95.779 Y145.697 E7.67835
G1 X95.16 Y145.21 E7.69406
G1 X94.56 Y144.716 E7.70957
G1 X94.141 Y144.357 E7.72058
G1 X93.273 Y143.575 E7.7439
G1 X92.997 Y143.316 E7.75145
G1 X92.299 Y142.636 E7.7709
G1 X91.994 Y142.327 E7.77956
G1 X91.408 Y141.706 E7.7966
G1 X90.518 Y140.706 E7.82332
G1 X89.566 Y139.557 E7.8531
G1 X89.079 Y138.929 E7.86895
G1 X88.719 Y138.44 E7.88107
G1 X88.183 Y137.684 E7.89957
G1 X87.568 Y136.76 E7.92172
G1 X87.19 Y136.159 E7.93589
G1 X86.711 Y135.353 E7.9546
G1 X86.057 Y134.171 E7.98155
G1 X85.879 Y133.833 E7.98918
G1 X85.382 Y132.837 E8.01139
G1 X84.989 Y131.988 E8.03006
G1 X84.625 Y131.144 E8.0484
G1 X84.471 Y130.767 E8.05653
G1 X84.103 Y129.799 E8.0772
G1 X83.67 Y128.55 E8.10358
G1 X83.431 Y127.795 E8.11938
G1 X83.131 Y126.739 E8.14129
G1 X83.044 Y126.407 E8.14814
G1 X82.735 Y125.126 E8.17443
G1 X82.603 Y124.51 E8.18701
G1 X82.48 Y123.87 E8.20001
G1 X82.344 Y123.066 E8.21628
G1 X82.194 Y121.998 E8.23781
G1 X82.084 Y121.032 E8.25721
G1 X81.996 Y119.968 E8.27851
G1 X81.927 Y118.514 E8.30756
G1 X81.909 Y117.283 E8.33213
G1 X81.939 Y115.973 E8.35828
G1 X81.959 Y115.57 E8.36633
G1 X82.032 Y114.559 E8.38656
G1 X82.148 Y113.396 E8.40989
G1 X82.26 Y112.508 E8.42775
G1 X82.422 Y111.486 E8.4484
G1 X82.686 Y110.097 E8.47661
G1 X82.775 Y109.676 E8.4852
G1 X83.013 Y108.699 E8.50527
G1 X83.369 Y107.423 E8.5317
G1 X83.77 Y106.143 E8.55847
G1 X83.969 Y105.564 E8.57069
G1 X84.332 Y104.588 E8.59147
G1 X84.764 Y103.528 E8.61431
G1 X85.201 Y102.542 E8.63583
G1 X85.494 Y101.932 E8.64934
G1 X86.099 Y100.745 E8.67593
G1 X86.601 Y99.831 E8.69674
G1 X86.878 Y99.358 E8.70768
G1 X87.377 Y98.547 E8.72668
G1 X87.966 Y97.64 E8.74826
G1 X88.617 Y96.703 E8.77103
G1 X89.081 Y96.07 E8.78669
G1 X89.801 Y95.147 E8.81005
G1 X90.427 Y94.391 E8.82964
G1 X90.848 Y93.906 E8.84246
G1 X91.412 Y93.286 E8.85918
G1 X91.957 Y92.716 E8.87492
G0 F6000 X91.675 Y92.433
G1 F1200 X92.619 Y91.493 E8.90151
G1 X93.087 Y91.052 E8.91434
G1 X93.972 Y90.262 E8.93801
G1 X94.707 Y89.644 E8.95718
G1 X95.034 Y89.382 E8.96554
G1 X95.94 Y88.681 E8.9884
G1 X96.423 Y88.322 E9.00041
G1 X97.307 Y87.71 E9.02186
G1 X98.37 Y87.018 E9.04718
G1 X98.689 Y86.82 E9.05467
G1 X99.681 Y86.237 E9.07763
G1 X100.712 Y85.67 E9.10111
G1 X101.749 Y85.14 E9.12435
G1 X102.484 Y84.789 E9.14061
G1 X103.428 Y84.372 E9.1612
G1 X103.797 Y84.218 E9.16918
G1 X105.019 Y83.744 E9.19534
G1 X106.01 Y83.395 E9.2163
G1 X106.41 Y83.264 E9.2247
G1 X107.585 Y82.903 E9.24923
G1 X108.136 Y82.75 E9.26065
G1 X109.409 Y82.437 E9.28681
G1 X110.629 Y82.176 E9.3117
G1 X111.013 Y82.103 E9.3195
G1 X112.044 Y81.929 E9.34037
G1 X113.248 Y81.766 E9.36462
G1 X114.412 Y81.646 E9.38797
G1 X115.615 Y81.557 E9.41204
G1 X116.051 Y81.537 E9.42075
G1 X117.042 Y81.51 E9.44053
G1 X118.02 Y81.51 E9.46005
G1 X119.238 Y81.553 E9.48437
G1 X120.285 Y81.621 E9.50531
G1 X121.738 Y81.761 E9.53444
G1 X122.824 Y81.903 E9.5563
G1 X123.274 Y81.972 E9.56538
G1 X124.594 Y82.213 E9.59216
G1 X125.556 Y82.423 E9.61181
G1 X126.88 Y82.754 E9.63905
G1 X127.735 Y82.995 E9.65677
G1 X128.481 Y83.225 E9.67235
G1 X129.726 Y83.654 E9.69863
G1 X130.068 Y83.78 E9.7059
G1 X131.372 Y84.291 E9.73385
G1 X132.186 Y84.641 E9.75154
G1 X133.07 Y85.051 E9.77098
