;FLAVOR:Marlin
;TIME:7926
;Filament used: 4.53111m
;Layer height: 0.12
;MINX:56.515
;MINY:56.774
;MINZ:0.12
;MAXX:178.485
;MAXY:178.226
;MAXZ:3.96
;Generated with Cura_SteamEngine main
M140 S50
M105
M190 S50
M104 S200
M105
M109 S200
M82 ;absolute extrusion mode
; Ender 3 Custom Start G-code
G92 E0 ; Reset Extruder
G28 ; Home all axes
G1 Z2.0 F3000 ; Move Z Axis up little to prevent scratching of Heat Bed
G1 X0.1 Y20 Z0.3 F5000.0 ; Move to start position
G1 X0.1 Y200.0 Z0.3 F1500.0 E15 ; Draw the first line
G1 X0.4 Y200.0 Z0.3 F5000.0 ; Move to side a little
G1 X0.4 Y20 Z0.3 F1500.0 E30 ; Draw the second line
G92 E0 ; Reset Extruder
G1 Z2.0 F3000 ; Move Z Axis up little to prevent scratching of Heat Bed
G1 X5 Y20 Z0.3 F5000.0 ; Move over to prevent blob squish
G92 E0
G92 E0
G1 F2700 E-5
;LAYER_COUNT:26
;LAYER:0
M107
G0 F6000 X76.526 Y73.463 Z0.12
;TYPE:SKIRT
G1 F2700 E0
G1 F1200 X77.168 Y72.828 E0.01802
G1 X77.858 Y72.257 E0.03589
G1 X78.858 Y71.502 E0.0609
G1 X85.921 Y66.37 E0.23513
G1 X86.589 Y65.899 E0.25144
G1 X87.35 Y65.412 E0.26947
G1 X88.13 Y65.004 E0.28703
G1 X89.264 Y64.474 E0.31201
G1 X97.296 Y60.897 E0.48748
G1 X97.981 Y60.603 E0.50235
G1 X98.826 Y60.284 E0.52038
G1 X99.683 Y60.045 E0.53813
G1 X100.885 Y59.767 E0.56275
G1 X109.504 Y57.935 E0.7386
G1 X110.239 Y57.789 E0.75355
G1 X111.132 Y57.653 E0.77158
G1 X112.011 Y57.597 E0.78916
G1 X113.259 Y57.574 E0.81406
G1 X122.019 Y57.574 E0.98888
G1 X122.807 Y57.584 E1.00461
G1 X123.709 Y57.637 E1.02264
G1 X124.581 Y57.765 E1.04023
G1 X125.816 Y58.003 E1.06533
G1 X134.557 Y59.862 E1.24366
G1 X135.155 Y59.998 E1.2559
G1 X136.026 Y60.237 E1.27393
G1 X136.855 Y60.545 E1.29157
G1 X137.991 Y61.026 E1.31619
G1 X146.013 Y64.598 E1.49143
G1 X146.717 Y64.922 E1.5069
G1 X147.52 Y65.336 E1.52493
G1 X148.284 Y65.821 E1.54299
G1 X149.307 Y66.537 E1.56791
G1 X156.484 Y71.751 E1.74494
G1 X157.023 Y72.155 E1.75838
G1 X157.721 Y72.728 E1.7764
G1 X158.344 Y73.339 E1.79382
G1 X159.197 Y74.251 E1.81874
G1 X165.074 Y80.778 E1.99401
G1 X165.59 Y81.367 E2.00964
G1 X166.154 Y82.073 E2.02767
G1 X166.638 Y82.801 E2.04511
G1 X167.165 Y83.673 E2.06545
G1 X171.737 Y91.592 E2.24793
G1 X172.036 Y92.125 E2.26012
G1 X172.442 Y92.931 E2.27813
G1 X172.779 Y93.777 E2.29631
G1 X173.18 Y94.941 E2.32087
G1 X175.889 Y103.276 E2.49577
G1 X176.126 Y104.041 E2.51176
G1 X176.355 Y104.915 E2.52979
G1 X176.504 Y105.799 E2.54768
G1 X176.654 Y107.02 E2.57223
G1 X177.583 Y115.858 E2.74957
G1 X177.643 Y116.517 E2.76277
G1 X177.685 Y117.419 E2.78079
G1 X177.648 Y118.307 E2.79853
G1 X177.539 Y119.566 E2.82375
G1 X176.611 Y128.383 E3.00067
G1 X176.531 Y129.052 E3.01412
G1 X176.384 Y129.943 E3.03214
G1 X176.165 Y130.798 E3.04975
G1 X175.799 Y132.001 E3.07485
G1 X173.044 Y140.475 E3.25267
G1 X172.849 Y141.05 E3.26478
G1 X172.521 Y141.891 E3.2828
G1 X172.122 Y142.697 E3.30075
G1 X171.51 Y143.803 E3.32597
G1 X167.074 Y151.484 E3.50298
G1 X166.727 Y152.065 E3.51649
G1 X166.23 Y152.819 E3.53451
G1 X165.688 Y153.503 E3.55192
G1 X164.845 Y154.476 E3.57761
G1 X158.933 Y161.041 E3.75392
G1 X158.474 Y161.537 E3.76741
G1 X157.832 Y162.172 E3.78543
G1 X157.142 Y162.743 E3.8033
G1 X156.142 Y163.498 E3.8283
G1 X149.079 Y168.63 E4.00253
G1 X148.419 Y169.096 E4.01866
G1 X147.659 Y169.584 E4.03668
G1 X146.868 Y169.997 E4.05449
G1 X145.736 Y170.526 E4.07942
G1 X137.704 Y174.103 E4.25489
G1 X137.019 Y174.397 E4.26976
G1 X136.174 Y174.716 E4.28779
G1 X135.317 Y174.955 E4.30554
G1 X134.115 Y175.233 E4.33016
G1 X125.496 Y177.065 E4.50601
G1 X124.761 Y177.211 E4.52096
G1 X123.868 Y177.347 E4.53899
G1 X122.989 Y177.403 E4.55656
G1 X121.741 Y177.426 E4.58147
G1 X112.839 Y177.425 E4.75912
G1 X112.193 Y177.416 E4.77201
G1 X111.291 Y177.363 E4.79005
G1 X110.418 Y177.235 E4.80765
G1 X109.179 Y176.996 E4.83284
G1 X100.443 Y175.138 E5.01107
G1 X99.845 Y175.002 E5.02331
G1 X98.974 Y174.763 E5.04133
G1 X98.145 Y174.455 E5.05898
G1 X97.009 Y173.974 E5.0836
G1 X88.987 Y170.402 E5.25884
G1 X88.283 Y170.078 E5.27431
G1 X87.48 Y169.664 E5.29234
G1 X86.717 Y169.18 E5.31037
G1 X85.679 Y168.453 E5.33566
G1 X78.516 Y163.249 E5.51235
G1 X77.977 Y162.845 E5.52579
G1 X77.279 Y162.272 E5.54381
G1 X76.656 Y161.661 E5.56122
G1 X75.803 Y160.749 E5.58614
G1 X69.926 Y154.222 E5.76142
G1 X69.41 Y153.633 E5.77704
G1 X68.846 Y152.927 E5.79508
G1 X68.362 Y152.199 E5.81252
G1 X67.835 Y151.327 E5.83286
G1 X63.263 Y143.408 E6.01534
G1 X62.964 Y142.875 E6.02753
G1 X62.558 Y142.069 E6.04554
G1 X62.221 Y141.223 E6.06371
G1 X61.82 Y140.059 E6.08828
G1 X59.111 Y131.724 E6.26318
G1 X58.874 Y130.959 E6.27916
G1 X58.645 Y130.085 E6.29719
G1 X58.496 Y129.201 E6.31508
G1 X58.346 Y127.98 E6.33963
G1 X57.417 Y119.142 E6.51698
G1 X57.357 Y118.483 E6.53018
G1 X57.315 Y117.581 E6.5482
G1 X57.352 Y116.693 E6.56594
G1 X57.461 Y115.434 E6.59116
G1 X58.373 Y106.761 E6.76519
G1 X58.469 Y105.949 E6.78151
G1 X58.616 Y105.058 E6.79953
G1 X58.836 Y104.199 E6.81722
G1 X59.201 Y102.999 E6.84226
G1 X61.956 Y94.525 E7.02008
G1 X62.151 Y93.95 E7.03219
G1 X62.479 Y93.109 E7.05021
G1 X62.878 Y92.303 E7.06815
G1 X63.49 Y91.197 E7.09338
G1 X67.926 Y83.516 E7.27039
G1 X68.273 Y82.935 E7.28389
G1 X68.77 Y82.181 E7.30192
G1 X69.312 Y81.497 E7.31933
G1 X70.155 Y80.524 E7.34502
G1 X76.067 Y73.959 E7.52133
G1 X76.526 Y73.463 E7.53481
G0 F6000 X76.232 Y73.191
G1 F1200 X76.913 Y72.52 E7.55389
G1 X77.617 Y71.938 E7.57212
G1 X78.623 Y71.178 E7.59728
G1 X85.69 Y66.043 E7.77161
G1 X86.373 Y65.562 E7.78828
G1 X87.134 Y65.075 E7.80631
G1 X87.961 Y64.642 E7.82494
G1 X89.101 Y64.109 E7.85005
G1 X97.138 Y60.529 E8.02563
G1 X97.823 Y60.235 E8.04051
G1 X98.685 Y59.91 E8.05889
G1 X99.593 Y59.655 E8.07771
G1 X100.802 Y59.376 E8.10247
G1 X109.426 Y57.543 E8.27842
G1 X110.179 Y57.394 E8.29374
G1 X111.107 Y57.254 E8.31247
G1 X112.004 Y57.197 E8.3304
G1 X113.252 Y57.174 E8.35531
G1 X122.024 Y57.174 E8.53037
G1 X122.83 Y57.185 E8.54645
G1 X123.767 Y57.241 E8.56519
G1 X124.657 Y57.372 E8.58314
G1 X125.899 Y57.612 E8.60838
G1 X134.646 Y59.472 E8.78684
G1 X135.261 Y59.612 E8.79943
G1 X136.132 Y59.851 E8.81745
G1 X137.011 Y60.177 E8.83616
G1 X138.154 Y60.661 E8.86093
G1 X146.18 Y64.235 E9.03626
G1 X146.9 Y64.566 E9.05208
G1 X147.703 Y64.98 E9.07011
G1 X148.513 Y65.493 E9.08924
G1 X149.542 Y66.213 E9.1143
G1 X156.724 Y71.431 E9.29146
G1 X157.277 Y71.846 E9.30526
G1 X158.001 Y72.442 E9.32397
G1 X158.636 Y73.066 E9.34174
G1 X159.494 Y73.983 E9.3668
G1 X165.375 Y80.514 E9.54219
G1 X165.903 Y81.117 E9.55818
G1 X166.467 Y81.823 E9.57621
G1 X166.98 Y82.594 E9.59469
G1 X167.511 Y83.473 E9.61519
G1 X172.086 Y91.396 E9.79777
G1 X172.393 Y91.945 E9.81032
G1 X172.814 Y92.783 E9.82903
G1 X173.151 Y93.629 E9.84721
G1 X173.56 Y94.817 E9.87228
G1 X176.271 Y103.158 E10.04731
G1 X176.513 Y103.94 E10.06364
G1 X176.742 Y104.814 E10.08167
G1 X176.901 Y105.75 E10.10062
G1 X177.052 Y106.978 E10.12531
G1 X177.981 Y115.822 E10.30277
G1 X178.043 Y116.498 E10.31632
G1 X178.085 Y117.436 E10.33506
G1 X178.047 Y118.342 E10.35315
G1 X177.937 Y119.608 E10.37851
G1 X177.008 Y128.43 E10.55554
G1 X176.926 Y129.117 E10.56934
G1 X176.779 Y130.008 E10.58737
G1 X176.548 Y130.914 E10.60602
G1 X176.179 Y132.125 E10.63129
G1 X173.423 Y140.603 E10.80919
G1 X173.222 Y141.195 E10.82167
G1 X172.894 Y142.036 E10.83968
G1 X172.472 Y142.891 E10.85871
G1 X171.856 Y144.003 E10.88408
G1 X167.417 Y151.689 E11.0612
G1 X167.061 Y152.285 E11.07506
G1 X166.544 Y153.067 E11.09377
G1 X165.99 Y153.765 E11.11155
G1 X165.142 Y154.744 E11.1374
G1 X159.227 Y161.313 E11.3138
G1 X158.768 Y161.809 E11.32729
G1 X158.087 Y162.48 E11.34637
G1 X157.383 Y163.062 E11.36459
G1 X156.377 Y163.822 E11.38975
G1 X149.31 Y168.957 E11.56408
G1 X148.635 Y169.433 E11.58057
G1 X147.844 Y169.939 E11.5993
G1 X147.053 Y170.352 E11.61711
G1 X145.899 Y170.891 E11.64253
G1 X137.862 Y174.471 E11.81811
G1 X137.177 Y174.765 E11.83298
G1 X136.315 Y175.09 E11.85137
G1 X135.407 Y175.345 E11.87019
G1 X134.198 Y175.624 E11.89495
G1 X125.574 Y177.457 E12.0709
G1 X124.821 Y177.606 E12.08621
G1 X123.893 Y177.746 E12.10494
G1 X122.996 Y177.803 E12.12288
G1 X121.741 Y177.826 E12.14793
G1 X112.833 Y177.825 E12.3257
G1 X112.17 Y177.815 E12.33893
G1 X111.233 Y177.759 E12.35766
G1 X110.342 Y177.628 E12.37563
G1 X109.096 Y177.387 E12.40096
G1 X100.354 Y175.528 E12.57932
G1 X99.739 Y175.388 E12.5919
G1 X98.868 Y175.149 E12.60993
G1 X97.989 Y174.823 E12.62864
G1 X96.846 Y174.339 E12.65341
G1 X88.82 Y170.765 E12.82874
G1 X88.1 Y170.434 E12.84455
G1 X87.297 Y170.02 E12.86258
G1 X86.488 Y169.508 E12.88169
G1 X85.444 Y168.777 E12.90712
G1 X78.276 Y163.569 E13.08394
G1 X77.723 Y163.154 E13.09773
G1 X76.999 Y162.558 E13.11645
G1 X76.364 Y161.934 E13.13421
G1 X75.506 Y161.017 E13.15928
G1 X69.625 Y154.486 E13.33466
G1 X69.097 Y153.883 E13.35066
G1 X68.533 Y153.177 E13.36869
G1 X68.02 Y152.406 E13.38717
G1 X67.489 Y151.527 E13.40766
G1 X62.914 Y143.604 E13.59024
G1 X62.607 Y143.055 E13.6028
G1 X62.186 Y142.217 E13.62151
G1 X61.849 Y141.371 E13.63968
G1 X61.44 Y140.183 E13.66476
G1 X58.729 Y131.842 E13.83978
G1 X58.487 Y131.06 E13.85612
G1 X58.258 Y130.186 E13.87415
G1 X58.099 Y129.25 E13.89309
G1 X57.948 Y128.022 E13.91778
G1 X57.019 Y119.178 E14.09525
G1 X56.957 Y118.502 E14.10879
G1 X56.915 Y117.564 E14.12753
G1 X56.953 Y116.658 E14.14563
G1 X57.063 Y115.392 E14.17099
G1 X57.976 Y106.714 E14.34512
G1 X58.074 Y105.884 E14.3618
G1 X58.221 Y104.993 E14.37982
G1 X58.453 Y104.083 E14.39856
G1 X58.821 Y102.875 E14.42376
G1 X61.577 Y94.397 E14.60167
G1 X61.778 Y93.805 E14.61414
G1 X62.106 Y92.964 E14.63216
G1 X62.528 Y92.109 E14.65118
G1 X63.144 Y90.997 E14.67655
G1 X67.583 Y83.311 E14.85368
G1 X67.939 Y82.715 E14.86753
G1 X68.456 Y81.933 E14.88624
G1 X69.01 Y81.235 E14.90402
G1 X69.858 Y80.256 E14.92987
G1 X75.773 Y73.687 E15.10628
G1 X76.232 Y73.191 E15.11976
G0 F6000 X75.951 Y72.906
G1 F1200 X76.632 Y72.235 E15.13884
G1 X77.376 Y71.619 E15.15812
G1 X78.388 Y70.854 E15.18343
G1 X85.46 Y65.716 E15.35788
G1 X86.157 Y65.225 E15.37489
G1 X86.918 Y64.738 E15.39292
G1 X87.792 Y64.28 E15.41261
G1 X88.938 Y63.744 E15.43786
G1 X96.98 Y60.161 E15.61356
G1 X97.665 Y59.867 E15.62843
G1 X98.577 Y59.525 E15.64787
G1 X99.503 Y59.265 E15.66706
G1 X100.719 Y58.985 E15.69196
G1 X109.348 Y57.151 E15.86801
G1 X110.119 Y56.998 E15.8837
G1 X111.047 Y56.858 E15.90243
G1 X111.997 Y56.797 E15.92142
G1 X113.245 Y56.774 E15.94633
G1 X122.029 Y56.774 E16.12163
G1 X122.854 Y56.786 E16.13809
G1 X123.825 Y56.845 E16.15751
G1 X124.733 Y56.979 E16.17582
G1 X125.982 Y57.221 E16.20121
G1 X134.735 Y59.082 E16.37979
G1 X135.367 Y59.226 E16.39273
G1 X136.238 Y59.465 E16.41075
G1 X137.167 Y59.809 E16.43052
G1 X138.317 Y60.296 E16.45544
G1 X146.347 Y63.872 E16.63086
G1 X147.083 Y64.21 E16.64702
G1 X147.886 Y64.624 E16.66505
G1 X148.742 Y65.165 E16.68526
G1 X149.777 Y65.889 E16.71047
G1 X156.964 Y71.111 E16.88775
G1 X157.531 Y71.537 E16.90191
G1 X158.255 Y72.133 E16.92062
G1 X158.928 Y72.793 E16.93943
G1 X159.791 Y73.715 E16.96463
G1 X165.676 Y80.25 E17.14013
G1 X166.216 Y80.867 E17.1565
G1 X166.78 Y81.573 E17.17453
G1 X167.322 Y82.387 E17.19404
G1 X167.857 Y83.273 E17.2147
G1 X172.435 Y91.201 E17.39739
G1 X172.75 Y91.765 E17.41029
G1 X173.186 Y92.635 E17.42971
G1 X173.523 Y93.481 E17.44788
G1 X173.94 Y94.693 E17.47346
G1 X176.653 Y103.04 E17.64861
G1 X176.9 Y103.839 E17.6653
G1 X177.129 Y104.713 E17.68333
G1 X177.298 Y105.701 E17.70333
G1 X177.45 Y106.936 E17.72816
G1 X178.379 Y115.785 E17.90572
G1 X178.443 Y116.48 E17.91965
G1 X178.485 Y117.418 E17.93839
G1 X178.447 Y118.359 E17.95718
G1 X178.335 Y119.65 E17.98304
G1 X177.405 Y128.477 E18.16017
G1 X177.321 Y129.182 E18.17434
G1 X177.167 Y130.107 E18.19305
G1 X176.931 Y131.031 E18.21208
G1 X176.559 Y132.249 E18.2375
G1 X173.802 Y140.732 E18.4155
G1 X173.595 Y141.34 E18.42832
G1 X173.253 Y142.213 E18.44703
G1 X172.822 Y143.085 E18.46644
G1 X172.202 Y144.203 E18.49195
G1 X167.76 Y151.894 E18.6692
G1 X167.395 Y152.506 E18.68342
G1 X166.878 Y153.288 E18.70212
G1 X166.292 Y154.027 E18.72095
G1 X165.439 Y155.012 E18.74695
G1 X159.521 Y161.585 E18.92345
G1 X159.049 Y162.094 E18.93731
G1 X158.368 Y162.765 E18.95638
G1 X157.624 Y163.381 E18.97566
G1 X156.612 Y164.146 E19.00098
G1 X149.541 Y169.284 E19.1754
G1 X148.851 Y169.77 E19.19225
G1 X148.029 Y170.294 E19.2117
G1 X147.238 Y170.707 E19.22951
G1 X146.062 Y171.256 E19.25541
G1 X138.02 Y174.839 E19.4311
G1 X137.335 Y175.133 E19.44598
G1 X136.423 Y175.475 E19.46542
G1 X135.497 Y175.735 E19.48461
G1 X134.281 Y176.015 E19.50951
G1 X125.652 Y177.849 E19.68556
G1 X124.881 Y178.002 E19.70125
G1 X123.953 Y178.142 E19.71997
G1 X123.003 Y178.203 E19.73897
G1 X121.741 Y178.226 E19.76416
G1 X112.827 Y178.225 E19.94205
G1 X112.146 Y178.214 E19.95564
G1 X111.175 Y178.155 E19.97505
G1 X110.266 Y178.021 E19.99339
G1 X109.013 Y177.778 E20.01886
G1 X100.265 Y175.918 E20.19734
G1 X99.633 Y175.774 E20.21027
G1 X98.762 Y175.535 E20.2283
G1 X97.833 Y175.191 E20.24807
G1 X96.683 Y174.704 E20.27299
G1 X88.653 Y171.128 E20.44841
G1 X87.917 Y170.79 E20.46457
G1 X87.114 Y170.376 E20.4826
G1 X86.259 Y169.836 E20.50278
G1 X85.209 Y169.101 E20.52836
G1 X78.036 Y163.889 E20.7053
G1 X77.469 Y163.463 E20.71945
G1 X76.745 Y162.867 E20.73817
G1 X76.072 Y162.207 E20.75698
G1 X75.209 Y161.285 E20.78218
G1 X69.324 Y154.75 E20.95768
G1 X68.784 Y154.133 E20.97404
G1 X68.22 Y153.427 E20.99208
G1 X67.678 Y152.613 E21.01159
G1 X67.143 Y151.727 E21.03225
G1 X62.565 Y143.799 E21.21494
G1 X62.25 Y143.235 E21.22783
G1 X61.814 Y142.365 E21.24725
G1 X61.477 Y141.519 E21.26543
G1 X61.06 Y140.307 E21.29101
G1 X58.347 Y131.96 E21.46616
G1 X58.1 Y131.161 E21.48285
G1 X57.871 Y130.287 E21.50088
G1 X57.702 Y129.299 E21.52088
G1 X57.55 Y128.064 E21.54571
G1 X56.621 Y119.215 E21.72327
G1 X56.557 Y118.52 E21.7372
G1 X56.515 Y117.582 E21.75594
G1 X56.553 Y116.641 E21.77473
G1 X56.665 Y115.35 E21.80059
G1 X57.579 Y106.667 E21.97483
G1 X57.679 Y105.819 E21.99187
G1 X57.833 Y104.894 E22.01058
G1 X58.07 Y103.966 E22.0297
G1 X58.441 Y102.751 E22.05505
G1 X61.198 Y94.268 E22.23305
G1 X61.405 Y93.66 E22.24587
G1 X61.747 Y92.787 E22.26458
G1 X62.178 Y91.915 E22.28399
G1 X62.798 Y90.797 E22.3095
G1 X67.24 Y83.106 E22.48674
G1 X67.605 Y82.494 E22.50096
G1 X68.122 Y81.712 E22.51967
G1 X68.708 Y80.973 E22.53849
G1 X69.561 Y79.988 E22.5645
G1 X75.479 Y73.415 E22.741
G1 X75.951 Y72.906 E22.75485
G1 F2700 E17.75485
;MESH:lamp_lip.stl
G0 F6000 X94.622 Y92.097
G0 X90.119 Y97.607
G0 X86.582 Y103.735
G0 X84.395 Y110.464
G0 X83.656 Y117.5
G0 X84.395 Y124.536
G0 X86.582 Y131.265
G0 X90.119 Y137.393
G0 X94.855 Y142.651
G0 X100.578 Y146.81
G0 X107.041 Y149.688
G0 X113.963 Y151.158
G0 X121.08 Y151.314
;TYPE:WALL-INNER
G1 F2700 E22.75485
G1 F1200 X113.92 Y151.314 E22.89774
G1 X106.987 Y149.841 E23.03918
G1 X100.523 Y146.963 E23.18039
G1 X94.744 Y142.77 E23.32287
G1 X89.989 Y137.491 E23.46465
G1 X86.432 Y131.33 E23.60662
G1 X84.245 Y124.593 E23.74797
G1 X83.494 Y117.5 E23.89031
G1 X84.245 Y110.407 E24.03265
G1 X86.432 Y103.67 E24.174
G1 X89.989 Y97.509 E24.31597
G1 X94.744 Y92.23 E24.45776
G1 X100.523 Y88.037 E24.60024
G1 X106.987 Y85.159 E24.74145
G1 X113.92 Y83.686 E24.88289
G1 X121.08 Y83.686 E25.02577
G1 X128.013 Y85.159 E25.16722
G1 X134.477 Y88.037 E25.30842
G1 X140.253 Y92.228 E25.45084
G1 X145.013 Y97.513 E25.59277
G1 X148.568 Y103.67 E25.73465
G1 X150.755 Y110.407 E25.87601
G1 X151.504 Y117.476 E26.01786
G1 X150.762 Y124.571 E26.16022
G1 X148.568 Y131.33 E26.30204
G1 X145.013 Y137.487 E26.44392
G1 X140.253 Y142.772 E26.58586
G1 X134.477 Y146.963 E26.72827
G1 X128.013 Y149.841 E26.86947
G1 X121.08 Y151.314 E27.01092
G0 F6000 X121.011 Y150.916
G1 F1200 X113.989 Y150.916 E27.15105
G1 X107.108 Y149.457 E27.29142
G1 X100.701 Y146.601 E27.4314
G1 X95.017 Y142.47 E27.57163
G1 X90.317 Y137.252 E27.71177
G1 X86.803 Y131.166 E27.85202
G1 X84.631 Y124.486 E27.99219
G1 X83.896 Y117.5 E28.13238
G1 X84.631 Y110.514 E28.27256
G1 X86.803 Y103.834 E28.41273
G1 X90.317 Y97.748 E28.55298
G1 X95.017 Y92.53 E28.69312
G1 X100.701 Y88.399 E28.83335
G1 X107.108 Y85.543 E28.97333
G1 X113.989 Y84.084 E29.1137
G1 X121.011 Y84.084 E29.25383
G1 X127.892 Y85.543 E29.39421
