;FLAVOR:Marlin
;TIME:39534
;Filament used: 44.624m
;Layer height: 0.28
;MINX:11.701
;MINY:91.5
;MINZ:0.28
;MAXX:230.561
;MAXY:143.5
;MAXZ:156.72
;Generated with Cura_SteamEngine main
M140 S50
M105
M190 S50
M104 S200
M105
M109 S200
M82 ;absolute extrusion mode
; Ender 3 Custom Start G-code
G92 E0 ; Reset Extruder
G28 ; Home all axes
G1 Z2.0 F3000 ; Move Z Axis up little to prevent scratching of Heat Bed
G1 X0.1 Y20 Z0.3 F5000.0 ; Move to start position
G1 X0.1 Y200.0 Z0.3 F1500.0 E15 ; Draw the first line
G1 X0.4 Y200.0 Z0.3 F5000.0 ; Move to side a little
G1 X0.4 Y20 Z0.3 F1500.0 E30 ; Draw the second line
G92 E0 ; Reset Extruder
G1 Z2.0 F3000 ; Move Z Axis up little to prevent scratching of Heat Bed
G1 X5 Y20 Z0.3 F5000.0 ; Move over to prevent blob squish
G92 E0
G92 E0
G1 F2700 E-5
;LAYER_COUNT:498
;LAYER:0
M107
G0 F6000 X20.393 Y101.076 Z0.28
;TYPE:SKIRT
G1 F2700 E0
G1 F1200 X21.28 Y100.91 E0.04202
G1 X22.424 Y100.813 E0.09548
G1 X23.031 Y100.8 E0.12375
G1 X69.089 Y100.8 E2.2684
G1 X71.695 Y100.763 E2.38976
G1 X74.26 Y100.654 E2.50931
G1 X76.767 Y100.476 E2.62634
G1 X79.308 Y100.225 E2.74523
G1 X81.816 Y99.904 E2.86297
G1 X84.321 Y99.51 E2.98105
G1 X86.808 Y99.048 E3.09883
G1 X89.322 Y98.507 E3.21858
G1 X91.768 Y97.908 E3.33584
G1 X94.212 Y97.235 E3.45388
G1 X96.647 Y96.49 E3.57245
G1 X99.049 Y95.679 E3.6905
G1 X101.462 Y94.789 E3.81026
G1 X103.791 Y93.854 E3.92712
G1 X104.415 Y93.582 E3.95881
G1 X105.556 Y93.103 E4.01644
G1 X106.403 Y92.791 E4.05847
G1 X107.275 Y92.555 E4.10053
G1 X108.164 Y92.398 E4.14257
G1 X109.189 Y92.315 E4.19045
G1 X109.828 Y92.3 E4.22021
G1 X219 Y92.301 E9.30372
G1 X219.698 Y92.311 E9.33622
G1 X220.6 Y92.364 E9.3783
G1 X221.493 Y92.496 E9.42033
G1 X222.371 Y92.707 E9.46238
G1 X223.227 Y92.995 E9.50443
G1 X224.054 Y93.357 E9.54647
G1 X224.846 Y93.792 E9.58854
G1 X225.597 Y94.294 E9.63061
G1 X226.3 Y94.861 E9.67266
G1 X226.95 Y95.488 E9.71472
G1 X227.542 Y96.17 E9.75677
G1 X228.072 Y96.901 E9.79881
G1 X228.534 Y97.677 E9.84086
G1 X228.927 Y98.49 E9.88291
G1 X229.245 Y99.335 E9.92495
G1 X229.488 Y100.205 E9.96701
G1 X229.653 Y101.093 E10.00907
G1 X229.748 Y102.222 E10.06183
G1 X229.761 Y102.829 E10.0901
G1 X229.76 Y131.89 E11.4433
G1 X229.751 Y132.617 E11.47716
G1 X229.7 Y133.519 E11.51922
G1 X229.569 Y134.413 E11.5613
G1 X229.36 Y135.291 E11.60332
G1 X229.074 Y136.148 E11.64539
G1 X228.713 Y136.976 E11.68745
G1 X228.281 Y137.768 E11.72946
G1 X227.78 Y138.52 E11.77154
G1 X227.214 Y139.224 E11.8136
G1 X226.589 Y139.875 E11.85562
G1 X225.908 Y140.469 E11.8977
G1 X225.177 Y141 E11.93977
G1 X224.403 Y141.464 E11.98179
G1 X223.59 Y141.858 E12.02386
G1 X222.746 Y142.178 E12.06589
G1 X221.876 Y142.423 E12.10797
G1 X220.989 Y142.589 E12.14999
G1 X219.838 Y142.687 E12.20378
G1 X219.231 Y142.7 E12.23205
G1 X110.029 Y142.699 E17.31696
G1 X109.318 Y142.687 E17.35007
G1 X108.416 Y142.631 E17.39215
G1 X107.523 Y142.497 E17.4342
G1 X106.646 Y142.283 E17.47623
G1 X105.415 Y141.839 E17.53717
G1 X105.005 Y141.66 E17.558
G1 X102.654 Y140.677 E17.67665
G1 X100.246 Y139.75 E17.7968
G1 X97.896 Y138.92 E17.91285
G1 X95.446 Y138.131 E18.03271
G1 X93.021 Y137.427 E18.15029
G1 X90.545 Y136.782 E18.26943
G1 X88.089 Y136.216 E18.38679
G1 X85.577 Y135.713 E18.50608
G1 X83.11 Y135.29 E18.62263
G1 X80.561 Y134.927 E18.74252
G1 X78.068 Y134.643 E18.85935
G1 X75.544 Y134.428 E18.97731
G1 X72.984 Y134.283 E19.0967
G1 X70.418 Y134.209 E19.21623
G1 X69.099 Y134.2 E19.27765
G1 X23.408 Y134.2 E21.40522
G1 X22.564 Y134.189 E21.44452
G1 X21.662 Y134.136 E21.4866
G1 X20.769 Y134.004 E21.52863
G1 X19.891 Y133.793 E21.57068
G1 X19.035 Y133.505 E21.61273
G1 X18.208 Y133.143 E21.65477
G1 X17.416 Y132.708 E21.69684
G1 X16.665 Y132.206 E21.73891
G1 X15.962 Y131.639 E21.78096
G1 X15.312 Y131.012 E21.82301
G1 X14.72 Y130.33 E21.86507
G1 X14.19 Y129.599 E21.90711
G1 X13.728 Y128.823 E21.94916
G1 X13.335 Y128.01 E21.99121
G1 X13.017 Y127.165 E22.03325
G1 X12.774 Y126.295 E22.07531
G1 X12.609 Y125.407 E22.11737
G1 X12.514 Y124.266 E22.17068
G1 X12.501 Y123.658 E22.199
G1 X12.502 Y111.565 E22.7621
G1 X12.511 Y110.876 E22.79419
G1 X12.563 Y109.974 E22.83626
G1 X12.694 Y109.081 E22.87828
G1 X12.904 Y108.202 E22.92036
G1 X13.19 Y107.346 E22.96239
G1 X13.552 Y106.518 E23.00447
G1 X13.985 Y105.726 E23.0465
G1 X14.486 Y104.975 E23.08854
G1 X15.052 Y104.271 E23.1306
G1 X15.678 Y103.62 E23.17265
G1 X16.36 Y103.027 E23.21474
G1 X17.091 Y102.497 E23.25678
G1 X17.865 Y102.033 E23.2988
G1 X18.678 Y101.64 E23.34085
G1 X19.523 Y101.32 E23.38292
G1 X20.393 Y101.076 E23.42499
G0 F6000 X20.319 Y100.683
G1 F1200 X21.246 Y100.511 E23.4689
G1 X22.39 Y100.414 E23.52236
G1 X23.022 Y100.4 E23.55179
G1 X69.083 Y100.4 E25.69659
G1 X71.678 Y100.363 E25.81743
G1 X74.243 Y100.254 E25.93698
G1 X76.736 Y100.077 E26.05335
G1 X79.257 Y99.828 E26.17131
G1 X81.765 Y99.507 E26.28905
G1 X84.259 Y99.115 E26.40661
G1 X86.723 Y98.657 E26.52331
G1 X89.227 Y98.118 E26.64257
G1 X91.673 Y97.519 E26.75983
G1 X94.106 Y96.85 E26.87733
G1 X96.519 Y96.111 E26.99484
G1 X98.921 Y95.3 E27.11289
G1 X101.313 Y94.418 E27.2316
G1 X103.631 Y93.487 E27.34792
G1 X104.26 Y93.213 E27.37987
G1 X105.401 Y92.734 E27.43749
G1 X106.299 Y92.405 E27.48202
G1 X107.205 Y92.161 E27.52571
G1 X108.132 Y91.999 E27.56953
G1 X109.18 Y91.915 E27.61849
G1 X109.828 Y91.9 E27.64867
G1 X219.006 Y91.901 E32.73245
G1 X219.721 Y91.912 E32.76575
G1 X220.658 Y91.968 E32.80946
G1 X221.551 Y92.1 E32.85149
G1 X222.499 Y92.328 E32.89689
G1 X223.355 Y92.616 E32.93895
G1 X224.247 Y93.006 E32.98428
G1 X225.039 Y93.441 E33.02635
G1 X225.819 Y93.961 E33.07001
G1 X226.578 Y94.573 E33.11541
G1 X227.228 Y95.2 E33.15746
G1 X227.866 Y95.935 E33.20278
G1 X228.416 Y96.696 E33.2465
G1 X228.878 Y97.472 E33.28855
G1 X229.301 Y98.349 E33.33389
G1 X229.63 Y99.227 E33.37755
G1 X229.881 Y100.132 E33.42128
G1 X230.052 Y101.059 E33.46518
G1 X230.147 Y102.188 E33.51793
G1 X230.161 Y102.829 E33.54779
G1 X230.16 Y131.895 E34.90122
G1 X230.15 Y132.64 E34.93592
G1 X230.096 Y133.577 E34.97962
G1 X229.965 Y134.471 E35.02169
G1 X229.749 Y135.384 E35.06538
G1 X229.441 Y136.308 E35.11073
G1 X229.08 Y137.136 E35.15279
G1 X228.614 Y137.99 E35.19809
G1 X228.092 Y138.771 E35.24183
G1 X227.526 Y139.475 E35.2839
G1 X226.878 Y140.152 E35.32753
G1 X226.143 Y140.793 E35.37294
G1 X225.412 Y141.324 E35.41502
G1 X224.609 Y141.807 E35.45865
G1 X223.732 Y142.232 E35.50403
G1 X222.888 Y142.552 E35.54606
G1 X221.95 Y142.816 E35.59143
G1 X221.023 Y142.988 E35.63533
G1 X219.872 Y143.086 E35.68912
G1 X219.24 Y143.1 E35.71856
G1 X110.022 Y143.099 E40.80421
G1 X109.293 Y143.086 E40.83816
G1 X108.357 Y143.027 E40.88183
G1 X107.428 Y142.886 E40.92558
G1 X106.551 Y142.672 E40.96762
G1 X105.255 Y142.206 E41.03175
G1 X104.845 Y142.027 E41.05258
G1 X102.5 Y141.046 E41.17094
G1 X100.102 Y140.123 E41.29059
G1 X97.773 Y139.301 E41.40559
G1 X95.323 Y138.512 E41.52544
G1 X92.914 Y137.812 E41.64226
G1 X90.455 Y137.172 E41.76057
G1 X87.999 Y136.606 E41.87793
G1 X85.502 Y136.106 E41.99651
G1 X83.054 Y135.686 E42.11217
G1 X80.505 Y135.323 E42.23206
G1 X78.034 Y135.042 E42.34786
G1 X75.51 Y134.826 E42.46581
G1 X72.972 Y134.683 E42.58418
G1 X70.406 Y134.609 E42.70372
G1 X69.096 Y134.6 E42.76472
G1 X23.403 Y134.6 E44.89237
G1 X22.541 Y134.588 E44.93252
G1 X21.604 Y134.532 E44.97622
G1 X20.711 Y134.4 E45.01826
G1 X19.763 Y134.172 E45.06366
G1 X18.907 Y133.884 E45.10571
G1 X18.015 Y133.494 E45.15105
G1 X17.223 Y133.059 E45.19312
G1 X16.443 Y132.539 E45.23677
G1 X15.684 Y131.927 E45.28217
G1 X15.034 Y131.3 E45.32423
G1 X14.396 Y130.565 E45.36955
G1 X13.846 Y129.804 E45.41327
G1 X13.384 Y129.028 E45.45532
G1 X12.961 Y128.151 E45.50066
G1 X12.632 Y127.273 E45.54432
G1 X12.381 Y126.368 E45.58805
G1 X12.21 Y125.44 E45.63199
G1 X12.114 Y124.275 E45.68642
G1 X12.101 Y123.658 E45.71516
G1 X12.102 Y111.56 E46.27849
G1 X12.112 Y110.853 E46.31141
G1 X12.167 Y109.916 E46.35512
G1 X12.298 Y109.023 E46.39715
G1 X12.515 Y108.109 E46.44089
G1 X12.823 Y107.186 E46.4862
G1 X13.185 Y106.358 E46.52828
G1 X13.652 Y105.504 E46.5736
G1 X14.174 Y104.724 E46.6173
G1 X14.74 Y104.02 E46.65936
G1 X15.416 Y103.318 E46.70474
G1 X16.125 Y102.703 E46.74845
G1 X16.856 Y102.173 E46.79049
G1 X17.659 Y101.69 E46.83413
G1 X18.536 Y101.266 E46.87948
G1 X19.381 Y100.946 E46.92156
G1 X20.319 Y100.683 E46.96692
G0 F6000 X20.211 Y100.298
G1 F1200 X21.212 Y100.112 E47.01433
G1 X22.356 Y100.015 E47.06779
G1 X23.013 Y100 E47.09839
G1 X69.077 Y100 E49.24332
G1 X71.661 Y99.963 E49.36366
G1 X74.226 Y99.854 E49.4832
G1 X76.705 Y99.678 E49.59892
G1 X79.206 Y99.431 E49.71595
G1 X81.714 Y99.11 E49.83368
G1 X84.197 Y98.72 E49.95072
G1 X86.637 Y98.266 E50.06629
G1 X89.132 Y97.729 E50.18512
G1 X91.578 Y97.13 E50.30239
G1 X94 Y96.465 E50.41934
G1 X96.391 Y95.732 E50.53579
G1 X98.793 Y94.921 E50.65384
G1 X101.164 Y94.047 E50.7715
G1 X103.471 Y93.12 E50.88728
G1 X104.105 Y92.844 E50.91947
G1 X105.263 Y92.358 E50.97795
G1 X106.161 Y92.029 E51.02248
G1 X107.136 Y91.767 E51.06949
G1 X108.1 Y91.6 E51.11505
G1 X109.171 Y91.515 E51.16508
G1 X109.828 Y91.5 E51.19568
G1 X219.012 Y91.501 E56.27974
G1 X219.745 Y91.513 E56.31388
G1 X220.716 Y91.572 E56.35918
G1 X221.645 Y91.711 E56.40292
G1 X222.593 Y91.939 E56.44832
G1 X223.515 Y92.249 E56.49361
G1 X224.44 Y92.655 E56.54065
G1 X225.232 Y93.09 E56.58272
G1 X226.041 Y93.628 E56.62796
G1 X226.856 Y94.285 E56.67671
G1 X227.506 Y94.912 E56.71876
G1 X228.168 Y95.673 E56.76573
G1 X228.76 Y96.491 E56.81275
G1 X229.222 Y97.267 E56.8548
G1 X229.676 Y98.209 E56.90349
G1 X230.005 Y99.087 E56.94715
G1 X230.274 Y100.059 E56.99411
G1 X230.451 Y101.025 E57.03984
G1 X230.546 Y102.154 E57.0926
G1 X230.561 Y102.829 E57.12404
G1 X230.56 Y131.9 E58.47771
G1 X230.549 Y132.663 E58.51324
G1 X230.492 Y133.635 E58.55858
G1 X230.361 Y134.529 E58.60065
G1 X230.138 Y135.476 E58.64595
G1 X229.808 Y136.468 E58.69463
G1 X229.447 Y137.296 E58.73669
G1 X228.947 Y138.212 E58.78529
G1 X228.404 Y139.022 E58.83069
G1 X227.838 Y139.726 E58.87276
G1 X227.167 Y140.429 E58.91801
G1 X226.378 Y141.117 E58.96675
G1 X225.647 Y141.648 E59.00882
G1 X224.815 Y142.15 E59.05407
G1 X223.874 Y142.606 E59.10276
G1 X223.03 Y142.926 E59.14479
G1 X222.058 Y143.201 E59.19183
G1 X221.057 Y143.387 E59.23924
G1 X219.906 Y143.485 E59.29303
G1 X219.249 Y143.5 E59.32363
G1 X110.015 Y143.499 E64.41002
G1 X109.268 Y143.485 E64.44481
G1 X108.332 Y143.426 E64.48848
G1 X107.333 Y143.275 E64.53553
G1 X106.456 Y143.061 E64.57756
G1 X105.095 Y142.573 E64.64489
G1 X104.685 Y142.394 E64.66572
G1 X102.346 Y141.415 E64.78379
G1 X99.958 Y140.496 E64.90293
G1 X97.65 Y139.682 E65.01689
G1 X95.2 Y138.893 E65.13674
G1 X92.807 Y138.197 E65.25279
G1 X90.365 Y137.562 E65.37028
G1 X87.909 Y136.996 E65.48764
G1 X85.427 Y136.499 E65.6055
G1 X82.998 Y136.082 E65.72026
G1 X80.449 Y135.719 E65.84015
G1 X78 Y135.441 E65.95492
G1 X75.476 Y135.224 E66.07288
G1 X72.96 Y135.083 E66.19022
G1 X70.394 Y135.009 E66.30976
G1 X69.093 Y135 E66.37034
G1 X23.397 Y135 E68.49813
G1 X22.517 Y134.987 E68.53912
G1 X21.546 Y134.928 E68.58441
G1 X20.617 Y134.789 E68.62815
G1 X19.669 Y134.561 E68.67355
G1 X18.747 Y134.251 E68.71885
G1 X17.822 Y133.845 E68.76589
G1 X17.03 Y133.41 E68.80796
G1 X16.221 Y132.872 E68.8532
G1 X15.406 Y132.215 E68.90195
G1 X14.756 Y131.588 E68.944
G1 X14.094 Y130.827 E68.99097
G1 X13.502 Y130.009 E69.03798
G1 X13.04 Y129.233 E69.08004
G1 X12.586 Y128.291 E69.12873
G1 X12.257 Y127.413 E69.17239
G1 X11.988 Y126.44 E69.21939
G1 X11.811 Y125.473 E69.26517
G1 X11.715 Y124.308 E69.3196
G1 X11.701 Y123.658 E69.34988
G1 X11.702 Y111.554 E69.91349
G1 X11.713 Y110.83 E69.9472
G1 X11.771 Y109.858 E69.99255
G1 X11.902 Y108.965 E70.03457
G1 X12.136 Y107.982 E70.08162
G1 X12.456 Y107.026 E70.12857
G1 X12.818 Y106.198 E70.17065
G1 X13.301 Y105.312 E70.21763
G1 X13.862 Y104.473 E70.26463
G1 X14.428 Y103.769 E70.30669
G1 X15.154 Y103.016 E70.3554
G1 X15.89 Y102.379 E70.40072
G1 X16.621 Y101.849 E70.44277
G1 X17.453 Y101.347 E70.48801
G1 X18.394 Y100.892 E70.53668
G1 X19.239 Y100.572 E70.57876
G1 X20.211 Y100.298 E70.62578
G1 F2700 E65.62578
;MESH:2.5in_case.stl
G0 F6000 X23.121 Y110.335
G0 X99.168 Y123.4
;TYPE:WALL-INNER
G1 F2700 E70.62578
G1 F1200 X99.168 Y111.6 E71.17524
G1 X23.301 Y111.6 E74.70792
G1 X23.301 Y123.4 E75.25738
G1 X99.168 Y123.4 E78.79007
G0 F6000 X99.568 Y123.8
;TYPE:WALL-OUTER
G1 F1200 X99.568 Y111.2 E79.37678
G1 X22.901 Y111.2 E82.94671
G1 X22.901 Y123.8 E83.53342
G1 X99.568 Y123.8 E87.10336
G0 F6000 X99.298 Y123.53
G0 X99.068 Y123.04
G0 X98.808 Y123.04
;TYPE:SKIN
G1 F1200 X23.661 Y123.04 E90.60252
G1 X23.661 Y111.96 E91.11845
G1 X98.808 Y111.96 E94.61761
G1 X98.808 Y123.04 E95.13354
G0 F6000 X99.068 Y123.04
G0 X99.068 Y112.75
G0 X98.608 Y112.75
G1 F1200 X98.017 Y112.159 E95.17246
G0 F6000 X97.451 Y112.159
G1 F1200 X98.608 Y113.315 E95.24861
G0 F6000 X98.608 Y113.881
G1 F1200 X96.885 Y112.159 E95.36204
G0 F6000 X96.319 Y112.159
G1 F1200 X98.608 Y114.447 E95.51275
G0 F6000 X98.608 Y115.013
G1 F1200 X95.754 Y112.159 E95.70069
G0 F6000 X95.188 Y112.159
G1 F1200 X98.608 Y115.578 E95.92587
G0 F6000 X98.608 Y116.144
G1 F1200 X94.622 Y112.159 E96.18832
G0 F6000 X94.057 Y112.159
G1 F1200 X98.608 Y116.71 E96.48801
G0 F6000 X98.608 Y117.275
G1 F1200 X93.491 Y112.159 E96.82494
G0 F6000 X92.925 Y112.159
G1 F1200 X98.608 Y117.841 E97.19914
G0 F6000 X98.608 Y118.407
G1 F1200 X92.36 Y112.159 E97.61058
G0 F6000 X91.794 Y112.159
G1 F1200 X98.608 Y118.972 E98.05926
G0 F6000 X98.608 Y119.538
G1 F1200 X91.228 Y112.159 E98.54522
G0 F6000 X90.663 Y112.159
G1 F1200 X98.608 Y120.104 E99.06841
G0 F6000 X98.608 Y120.669
G1 F1200 X90.097 Y112.159 E99.62884
G0 F6000 X89.531 Y112.159
G1 F1200 X98.608 Y121.235 E100.22654
G0 F6000 X98.608 Y121.801
G1 F1200 X88.966 Y112.159 E100.86148
G0 F6000 X88.4 Y112.159
G1 F1200 X98.608 Y122.366 E101.53367
G0 F6000 X98.514 Y122.839
G1 F1200 X87.834 Y112.159 E102.23696
G0 F6000 X87.268 Y112.159
G1 F1200 X97.949 Y122.839 E102.94029
G0 F6000 X97.383 Y122.839
G1 F1200 X86.703 Y112.159 E103.64359
G0 F6000 X86.137 Y112.159
G1 F1200 X96.817 Y122.839 E104.34688
G0 F6000 X96.252 Y122.839
G1 F1200 X85.571 Y112.159 E105.05021
G0 F6000 X85.006 Y112.159
G1 F1200 X95.686 Y122.839 E105.75351
G0 F6000 X95.12 Y122.839
G1 F1200 X84.44 Y112.159 E106.45681
G0 F6000 X83.874 Y112.159
G1 F1200 X94.555 Y122.839 E107.16013
G0 F6000 X93.989 Y122.839
G1 F1200 X83.309 Y112.159 E107.86343
G0 F6000 X82.743 Y112.159
G1 F1200 X93.423 Y122.839 E108.56673
G0 F6000 X92.857 Y122.839
G1 F1200 X82.177 Y112.159 E109.27002
G0 F6000 X81.612 Y112.159
G1 F1200 X92.292 Y122.839 E109.97332
G0 F6000 X91.726 Y122.839
G1 F1200 X81.046 Y112.159 E110.67662
G0 F6000 X80.48 Y112.159
G1 F1200 X91.16 Y122.839 E111.37991
G0 F6000 X90.595 Y122.839
G1 F1200 X79.915 Y112.159 E112.08321
G0 F6000 X79.349 Y112.159
G1 F1200 X90.029 Y122.839 E112.7865
G0 F6000 X89.463 Y122.839
G1 F1200 X78.783 Y112.159 E113.4898
G0 F6000 X78.218 Y112.159
G1 F1200 X88.898 Y122.839 E114.1931
G0 F6000 X88.332 Y122.839
G1 F1200 X77.652 Y112.159 E114.89639
G0 F6000 X77.086 Y112.159
G1 F1200 X87.766 Y122.839 E115.59969
G0 F6000 X87.201 Y122.839
G1 F1200 X76.52 Y112.159 E116.30302
G0 F6000 X75.955 Y112.159
G1 F1200 X86.635 Y122.839 E117.00631
G0 F6000 X86.069 Y122.839
G1 F1200 X75.389 Y112.159 E117.70961
G0 F6000 X74.823 Y112.159
G1 F1200 X85.504 Y122.839 E118.41294
G0 F6000 X84.938 Y122.839
G1 F1200 X74.258 Y112.159 E119.11624
G0 F6000 X73.692 Y112.159
G1 F1200 X84.372 Y122.839 E119.81953
G0 F6000 X83.807 Y122.839
G1 F1200 X73.126 Y112.159 E120.52286
G0 F6000 X72.561 Y112.159
G1 F1200 X83.241 Y122.839 E121.22616
G0 F6000 X82.675 Y122.839
G1 F1200 X71.995 Y112.159 E121.92945
G0 F6000 X71.429 Y112.159
G1 F1200 X82.109 Y122.839 E122.63275
G0 F6000 X81.544 Y122.839
G1 F1200 X70.864 Y112.159 E123.33605
G0 F6000 X70.298 Y112.159
G1 F1200 X80.978 Y122.839 E124.03934
G0 F6000 X80.412 Y122.839
G1 F1200 X69.732 Y112.159 E124.74264
G0 F6000 X69.167 Y112.159
G1 F1200 X79.847 Y122.839 E125.44594
G0 F6000 X79.281 Y122.839
G1 F1200 X68.601 Y112.159 E126.14923
G0 F6000 X68.035 Y112.159
G1 F1200 X78.715 Y122.839 E126.85253
G0 F6000 X78.15 Y122.839
