;FLAVOR:Marlin
;TIME:11696
;Filament used: 11.4733m
;Layer height: 0.28
;MINX:67.851
;MINY:97.714
;MINZ:0.28
;MAXX:166.918
;MAXY:136.886
;MAXZ:108.88
;Generated with Cura_SteamEngine main
M140 S50
M105
M190 S50
M104 S200
M105
M109 S200
M82 ;absolute extrusion mode
; Ender 3 Custom Start G-code
G92 E0 ; Reset Extruder
G28 ; Home all axes
G1 Z2.0 F3000 ; Move Z Axis up little to prevent scratching of Heat Bed
G1 X0.1 Y20 Z0.3 F5000.0 ; Move to start position
G1 X0.1 Y200.0 Z0.3 F1500.0 E15 ; Draw the first line
G1 X0.4 Y200.0 Z0.3 F5000.0 ; Move to side a little
G1 X0.4 Y20 Z0.3 F1500.0 E30 ; Draw the second line
G92 E0 ; Reset Extruder
G1 Z2.0 F3000 ; Move Z Axis up little to prevent scratching of Heat Bed
G1 X5 Y20 Z0.3 F5000.0 ; Move over to prevent blob squish
G92 E0
G92 E0
G1 F2700 E-5
;LAYER_COUNT:346
;LAYER:0
M107
G0 F6000 X73.245 Y102.494 Z0.28
;TYPE:SKIRT
G1 F2700 E0
G1 F1200 X74.02 Y102.031 E0.04204
G1 X74.833 Y101.638 E0.08408
G1 X75.678 Y101.318 E0.12616
G1 X76.547 Y101.075 E0.16817
G1 X77.435 Y100.909 E0.21024
G1 X78.574 Y100.813 E0.26346
G1 X79.181 Y100.8 E0.29174
G1 X92.776 Y100.8 E0.92478
G1 X95.382 Y100.763 E1.04613
G1 X97.947 Y100.654 E1.16568
G1 X100.454 Y100.476 E1.28271
G1 X102.995 Y100.225 E1.4016
G1 X105.503 Y99.904 E1.51934
G1 X108.008 Y99.51 E1.63742
G1 X110.531 Y99.041 E1.75691
G1 X111.958 Y98.744 E1.82478
G1 X112.85 Y98.599 E1.86686
G1 X113.862 Y98.532 E1.91409
G1 X114.967 Y98.514 E1.96555
G1 X118.939 Y98.514 E2.1505
G1 X119.786 Y98.525 E2.18995
G1 X120.688 Y98.578 E2.23202
G1 X121.65 Y98.724 E2.27733
G1 X124.466 Y99.29 E2.41107
G1 X126.972 Y99.719 E2.52946
G1 X129.473 Y100.075 E2.64709
G1 X131.998 Y100.361 E2.76542
G1 X134.524 Y100.576 E2.88347
G1 X137.029 Y100.717 E3.00029
G1 X140.978 Y100.8 E3.18422
G1 X155.357 Y100.801 E3.85376
G1 X156.055 Y100.811 E3.88627
G1 X156.957 Y100.864 E3.92834
G1 X157.85 Y100.996 E3.97037
G1 X158.728 Y101.207 E4.01242
G1 X159.584 Y101.495 E4.05448
G1 X160.411 Y101.857 E4.09651
G1 X161.203 Y102.292 E4.13859
G1 X161.954 Y102.794 E4.18065
G1 X162.657 Y103.361 E4.22271
G1 X163.307 Y103.988 E4.26476
G1 X163.899 Y104.67 E4.30681
G1 X164.429 Y105.401 E4.34885
G1 X164.891 Y106.177 E4.39091
G1 X165.284 Y106.99 E4.43295
G1 X165.602 Y107.835 E4.475
G1 X165.845 Y108.705 E4.51706
G1 X166.01 Y109.593 E4.55911
G1 X166.105 Y110.723 E4.61192
G1 X166.118 Y111.33 E4.64019
G1 X166.117 Y123.39 E5.20175
G1 X166.108 Y124.117 E5.23561
G1 X166.057 Y125.019 E5.27767
G1 X165.926 Y125.913 E5.31975
G1 X165.717 Y126.791 E5.36177
G1 X165.431 Y127.648 E5.40384
G1 X165.07 Y128.476 E5.4459
G1 X164.638 Y129.268 E5.48791
G1 X164.137 Y130.02 E5.52999
G1 X163.571 Y130.724 E5.57205
G1 X162.946 Y131.375 E5.61407
G1 X162.265 Y131.969 E5.65615
G1 X161.534 Y132.5 E5.69822
G1 X160.76 Y132.964 E5.74024
G1 X159.947 Y133.358 E5.78231
G1 X159.103 Y133.678 E5.82434
G1 X158.233 Y133.923 E5.86642
G1 X157.346 Y134.089 E5.90844
G1 X156.195 Y134.187 E5.96223
G1 X155.588 Y134.2 E5.9905
G1 X139.002 Y134.2 E6.76282
G1 X136.396 Y134.237 E6.88418
G1 X133.831 Y134.346 E7.00372
G1 X131.324 Y134.524 E7.12075
G1 X128.783 Y134.775 E7.23965
G1 X126.275 Y135.096 E7.35738
G1 X123.766 Y135.491 E7.47565
G1 X121.52 Y135.902 E7.58197
G1 X120.625 Y136.025 E7.62404
G1 X119.865 Y136.067 E7.65948
G1 X118.737 Y136.086 E7.71201
G1 X114.616 Y136.085 E7.9039
G1 X113.909 Y136.074 E7.93683
G1 X113.008 Y136.02 E7.97886
G1 X112.209 Y135.904 E8.01645
G1 X111.245 Y135.725 E8.06211
G1 X108.699 Y135.289 E8.18239
G1 X106.129 Y134.924 E8.30326
G1 X103.667 Y134.643 E8.41864
G1 X101.102 Y134.426 E8.53851
G1 X98.605 Y134.284 E8.65497
G1 X94.641 Y134.2 E8.83959
G1 X79.412 Y134.199 E9.54871
G1 X78.714 Y134.189 E9.58122
G1 X77.812 Y134.136 E9.62329
G1 X76.919 Y134.004 E9.66533
G1 X76.041 Y133.793 E9.70737
G1 X75.185 Y133.505 E9.74943
G1 X74.358 Y133.143 E9.79146
G1 X73.566 Y132.708 E9.83354
G1 X72.815 Y132.206 E9.8756
G1 X72.112 Y131.639 E9.91766
G1 X71.462 Y131.012 E9.95971
G1 X70.87 Y130.33 E10.00176
G1 X70.34 Y129.599 E10.04381
G1 X69.878 Y128.823 E10.08586
G1 X69.485 Y128.01 E10.12791
G1 X69.167 Y127.165 E10.16995
G1 X68.924 Y126.295 E10.21201
G1 X68.759 Y125.407 E10.25406
G1 X68.664 Y124.266 E10.30738
G1 X68.651 Y123.658 E10.3357
G1 X68.652 Y111.536 E10.90015
G1 X68.661 Y110.871 E10.93111
G1 X68.713 Y109.969 E10.97319
G1 X68.845 Y109.076 E11.01522
G1 X69.055 Y108.198 E11.05726
G1 X69.342 Y107.341 E11.09934
G1 X69.704 Y106.514 E11.14138
G1 X70.137 Y105.722 E11.18341
G1 X70.639 Y104.971 E11.22547
G1 X71.206 Y104.267 E11.26756
G1 X71.832 Y103.617 E11.30958
G1 X72.513 Y103.024 E11.35163
G1 X73.245 Y102.494 E11.39371
G0 F6000 X73.01 Y102.17
G1 F1200 X73.846 Y101.671 E11.43904
G1 X74.691 Y101.264 E11.48272
G1 X75.536 Y100.944 E11.52479
G1 X76.473 Y100.682 E11.5701
G1 X77.401 Y100.51 E11.61404
G1 X78.54 Y100.414 E11.66727
G1 X79.172 Y100.4 E11.6967
G1 X92.77 Y100.4 E12.32988
G1 X95.365 Y100.363 E12.45073
G1 X97.93 Y100.254 E12.57027
G1 X100.423 Y100.077 E12.68665
G1 X102.944 Y99.828 E12.80461
G1 X105.452 Y99.507 E12.92235
G1 X107.946 Y99.115 E13.0399
G1 X110.449 Y98.649 E13.15846
G1 X111.894 Y98.349 E13.22718
G1 X112.786 Y98.204 E13.26926
G1 X113.855 Y98.132 E13.31915
G1 X114.96 Y98.114 E13.37061
G1 X118.944 Y98.114 E13.55612
G1 X119.809 Y98.126 E13.5964
G1 X120.711 Y98.179 E13.63847
G1 X121.729 Y98.332 E13.68641
G1 X124.547 Y98.898 E13.82025
G1 X127.028 Y99.323 E13.93746
G1 X129.529 Y99.679 E14.05509
G1 X132.032 Y99.962 E14.17238
G1 X134.558 Y100.178 E14.29043
G1 X137.037 Y100.317 E14.40604
G1 X140.986 Y100.4 E14.58997
G1 X155.363 Y100.401 E15.25942
G1 X156.078 Y100.412 E15.29272
G1 X157.015 Y100.468 E15.33643
G1 X157.908 Y100.6 E15.37846
G1 X158.856 Y100.828 E15.42386
G1 X159.712 Y101.116 E15.46591
G1 X160.604 Y101.506 E15.51125
G1 X161.396 Y101.941 E15.55332
G1 X162.176 Y102.461 E15.59697
G1 X162.935 Y103.073 E15.64237
G1 X163.585 Y103.7 E15.68443
G1 X164.223 Y104.435 E15.72975
G1 X164.773 Y105.196 E15.77347
G1 X165.235 Y105.972 E15.81552
G1 X165.658 Y106.849 E15.86086
G1 X165.987 Y107.727 E15.90452
G1 X166.238 Y108.632 E15.94825
G1 X166.409 Y109.559 E15.99214
G1 X166.504 Y110.689 E16.04495
G1 X166.518 Y111.33 E16.0748
G1 X166.517 Y123.395 E16.6366
G1 X166.507 Y124.14 E16.67129
G1 X166.453 Y125.077 E16.71499
G1 X166.322 Y125.971 E16.75707
G1 X166.106 Y126.884 E16.80075
G1 X165.798 Y127.808 E16.84611
G1 X165.437 Y128.636 E16.88817
G1 X164.971 Y129.49 E16.93347
G1 X164.449 Y130.271 E16.97721
G1 X163.883 Y130.975 E17.01927
G1 X163.235 Y131.652 E17.06291
G1 X162.5 Y132.293 E17.10832
G1 X161.769 Y132.824 E17.15039
G1 X160.966 Y133.307 E17.19403
G1 X160.089 Y133.732 E17.2394
G1 X159.245 Y134.052 E17.28143
G1 X158.307 Y134.316 E17.32681
G1 X157.38 Y134.488 E17.37071
G1 X156.229 Y134.586 E17.4245
G1 X155.597 Y134.6 E17.45394
G1 X139.008 Y134.6 E18.22639
G1 X136.413 Y134.637 E18.34724
G1 X133.848 Y134.746 E18.46678
G1 X131.355 Y134.923 E18.58316
G1 X128.834 Y135.172 E18.70112
G1 X126.326 Y135.493 E18.81885
G1 X123.828 Y135.886 E18.9366
G1 X121.574 Y136.298 E19.04329
G1 X120.647 Y136.424 E19.08686
G1 X119.872 Y136.467 E19.123
G1 X118.744 Y136.486 E19.17553
G1 X114.61 Y136.485 E19.36803
G1 X113.885 Y136.473 E19.40179
G1 X112.951 Y136.416 E19.44536
G1 X112.136 Y136.297 E19.48372
G1 X111.177 Y136.119 E19.52913
G1 X108.643 Y135.685 E19.64884
G1 X106.073 Y135.32 E19.76972
G1 X103.633 Y135.042 E19.88407
G1 X101.068 Y134.824 E20.00394
G1 X98.597 Y134.684 E20.11918
G1 X94.633 Y134.6 E20.3038
G1 X79.406 Y134.599 E21.01283
G1 X78.691 Y134.588 E21.04613
G1 X77.754 Y134.532 E21.08984
G1 X76.861 Y134.4 E21.13187
G1 X75.913 Y134.172 E21.17728
G1 X75.057 Y133.884 E21.21933
G1 X74.165 Y133.494 E21.26466
G1 X73.373 Y133.059 E21.30674
G1 X72.593 Y132.539 E21.35039
G1 X71.834 Y131.927 E21.39579
G1 X71.184 Y131.3 E21.43784
G1 X70.546 Y130.565 E21.48316
G1 X69.996 Y129.804 E21.52688
G1 X69.534 Y129.028 E21.56894
G1 X69.111 Y128.151 E21.61427
G1 X68.782 Y127.273 E21.65793
G1 X68.531 Y126.368 E21.70167
G1 X68.36 Y125.44 E21.7456
G1 X68.264 Y124.275 E21.80004
G1 X68.251 Y123.658 E21.82877
G1 X68.252 Y111.531 E22.39346
G1 X68.262 Y110.848 E22.42526
G1 X68.317 Y109.911 E22.46897
G1 X68.449 Y109.018 E22.511
G1 X68.666 Y108.105 E22.5547
G1 X68.963 Y107.214 E22.59843
G1 X69.353 Y106.322 E22.64376
G1 X69.804 Y105.5 E22.68742
G1 X70.327 Y104.72 E22.73115
G1 X70.894 Y104.016 E22.77324
G1 X71.569 Y103.315 E22.81856
G1 X72.25 Y102.722 E22.8606
G1 X73.01 Y102.17 E22.90434
G0 F6000 X72.775 Y101.846
G1 F1200 X73.672 Y101.311 E22.95298
G1 X74.549 Y100.89 E22.99827
G1 X75.394 Y100.57 E23.04035
G1 X76.4 Y100.289 E23.08898
G1 X77.367 Y100.111 E23.13477
G1 X78.506 Y100.015 E23.18799
G1 X79.163 Y100 E23.21859
G1 X92.764 Y100 E23.85191
G1 X95.348 Y99.963 E23.97225
G1 X97.913 Y99.854 E24.09179
G1 X100.392 Y99.678 E24.20752
G1 X102.893 Y99.431 E24.32454
G1 X105.401 Y99.11 E24.44227
G1 X107.884 Y98.72 E24.55931
G1 X110.368 Y98.257 E24.67697
G1 X111.83 Y97.954 E24.74649
G1 X112.722 Y97.809 E24.78857
G1 X113.848 Y97.732 E24.84113
G1 X114.953 Y97.714 E24.89259
G1 X118.95 Y97.714 E25.0787
G1 X119.832 Y97.727 E25.11978
G1 X120.77 Y97.783 E25.16353
G1 X121.808 Y97.94 E25.21242
G1 X124.622 Y98.505 E25.34606
G1 X127.084 Y98.927 E25.46238
G1 X129.585 Y99.283 E25.58001
G1 X132.066 Y99.563 E25.69627
G1 X134.592 Y99.78 E25.81432
G1 X137.045 Y99.917 E25.92872
G1 X140.994 Y100 E26.11264
G1 X155.369 Y100.001 E26.782
G1 X156.102 Y100.013 E26.81614
G1 X157.073 Y100.072 E26.86144
G1 X158.002 Y100.211 E26.90518
G1 X158.95 Y100.439 E26.95058
G1 X159.872 Y100.749 E26.99587
G1 X160.797 Y101.155 E27.04291
G1 X161.589 Y101.59 E27.08498
G1 X162.398 Y102.128 E27.13022
G1 X163.213 Y102.785 E27.17897
G1 X163.863 Y103.412 E27.22102
G1 X164.525 Y104.173 E27.26799
G1 X165.117 Y104.991 E27.31501
G1 X165.579 Y105.767 E27.35706
G1 X166.033 Y106.709 E27.40575
G1 X166.362 Y107.587 E27.44941
G1 X166.631 Y108.559 E27.49637
G1 X166.808 Y109.525 E27.5421
G1 X166.903 Y110.655 E27.59491
G1 X166.918 Y111.33 E27.62634
G1 X166.917 Y123.4 E28.18837
G1 X166.906 Y124.163 E28.22391
G1 X166.849 Y125.135 E28.26924
G1 X166.718 Y126.029 E28.31132
G1 X166.495 Y126.976 E28.35662
G1 X166.165 Y127.968 E28.4053
G1 X165.804 Y128.796 E28.44736
G1 X165.304 Y129.712 E28.49595
G1 X164.761 Y130.522 E28.54136
G1 X164.195 Y131.226 E28.58342
G1 X163.524 Y131.929 E28.62868
G1 X162.735 Y132.617 E28.67742
G1 X162.004 Y133.148 E28.71949
G1 X161.172 Y133.65 E28.76474
G1 X160.231 Y134.106 E28.81343
G1 X159.387 Y134.426 E28.85546
G1 X158.415 Y134.701 E28.9025
G1 X157.414 Y134.887 E28.94991
G1 X156.263 Y134.985 E29.0037
G1 X155.606 Y135 E29.0343
G1 X139.014 Y135 E29.80689
G1 X136.43 Y135.037 E29.92722
G1 X133.865 Y135.146 E30.04677
G1 X131.386 Y135.322 E30.16249
G1 X128.885 Y135.569 E30.27951
G1 X126.377 Y135.89 E30.39725
G1 X123.89 Y136.281 E30.51448
G1 X121.628 Y136.694 E30.62155
G1 X120.669 Y136.823 E30.6666
G1 X119.879 Y136.867 E30.70345
G1 X118.744 Y136.886 E30.75631
G1 X114.603 Y136.885 E30.94913
G1 X113.861 Y136.872 E30.98368
G1 X112.893 Y136.812 E31.02884
G1 X112.063 Y136.69 E31.06791
G1 X111.109 Y136.513 E31.11309
G1 X108.587 Y136.081 E31.23223
G1 X106.017 Y135.716 E31.3531
G1 X103.599 Y135.441 E31.46642
G1 X101.034 Y135.222 E31.58629
G1 X98.589 Y135.084 E31.70032
G1 X94.625 Y135 E31.88495
G1 X79.4 Y134.999 E32.59389
G1 X78.667 Y134.987 E32.62802
G1 X77.696 Y134.928 E32.67332
G1 X76.767 Y134.789 E32.71706
G1 X75.819 Y134.561 E32.76246
G1 X74.897 Y134.251 E32.80775
G1 X73.972 Y133.845 E32.85479
G1 X73.18 Y133.41 E32.89687
G1 X72.371 Y132.872 E32.94211
G1 X71.556 Y132.215 E32.99085
G1 X70.906 Y131.588 E33.03291
G1 X70.244 Y130.827 E33.07987
G1 X69.652 Y130.009 E33.12689
G1 X69.19 Y129.233 E33.16894
G1 X68.736 Y128.291 E33.21764
G1 X68.407 Y127.413 E33.2613
G1 X68.138 Y126.44 E33.3083
G1 X67.961 Y125.473 E33.35408
G1 X67.865 Y124.308 E33.40851
G1 X67.851 Y123.658 E33.43878
G1 X67.852 Y111.525 E34.00375
G1 X67.863 Y110.825 E34.03634
G1 X67.921 Y109.853 E34.08169
G1 X68.053 Y108.96 E34.12372
G1 X68.277 Y108.013 E34.16903
G1 X68.596 Y107.054 E34.21609
G1 X68.986 Y106.162 E34.26142
G1 X69.453 Y105.308 E34.30675
G1 X70.015 Y104.469 E34.35377
G1 X70.582 Y103.765 E34.39586
G1 X71.306 Y103.013 E34.44447
G1 X71.987 Y102.42 E34.48652
G1 X72.775 Y101.846 E34.53191
G1 F2700 E29.53191
G0 F6000 X112.642 Y110
G1 F2700 E34.53191
G1 F1200 X114.134 Y108.914 E34.61784
G1 X119.58 Y108.914 E34.87143
G1 X121.072 Y110 E34.95736
G1 X112.642 Y110 E35.34989
G0 F6000 X113.87 Y109.6
G1 F1200 X114.263 Y109.314 E35.37253
G1 X119.451 Y109.314 E35.6141
G1 X119.844 Y109.6 E35.63673
G1 X113.87 Y109.6 E35.91491
G1 F2700 E30.91491
G0 F6000 X78.198 Y110.347
G0 X78.198 Y124.653
G0 X113.191 Y125
G1 F2700 E35.91491
G1 F1200 X120.523 Y125 E36.25632
G1 X119.58 Y125.686 E36.31062
G1 X114.134 Y125.686 E36.56421
G1 X113.191 Y125 E36.6185
G1 F2700 E31.6185
;MESH:2.5in_case.stl
G0 F6000 X113.191 Y123.58
G0 X155.318 Y123.4
;TYPE:WALL-INNER
G1 F2700 E36.6185
G1 F1200 X155.318 Y111.6 E37.16796
G1 X79.451 Y111.6 E40.70065
G1 X79.451 Y123.4 E41.25011
G1 X155.318 Y123.4 E44.78279
G0 F6000 X155.718 Y123.8
;TYPE:WALL-OUTER
G1 F1200 X155.718 Y111.2 E45.3695
G1 X79.051 Y111.2 E48.93944
G1 X79.051 Y123.8 E49.52614
G1 X155.718 Y123.8 E53.09608
G0 F6000 X155.448 Y123.53
G0 X155.218 Y123.04
G0 X154.958 Y123.04
;TYPE:SKIN
G1 F1200 X79.811 Y123.04 E56.59524
G1 X79.811 Y111.96 E57.11117
G1 X154.958 Y111.96 E60.61033
G1 X154.958 Y123.04 E61.12626
G0 F6000 X155.218 Y123.04
G0 X155.218 Y112.33
G0 X154.757 Y112.33
G1 F1200 X154.586 Y112.159 E61.13752
G0 F6000 X154.02 Y112.159
G1 F1200 X154.757 Y112.896 E61.18606
G0 F6000 X154.757 Y113.462
G1 F1200 X153.454 Y112.159 E61.27186
G0 F6000 X152.889 Y112.159
G1 F1200 X154.757 Y114.028 E61.3949
G0 F6000 X154.757 Y114.593
G1 F1200 X152.323 Y112.159 E61.55519
G0 F6000 X151.757 Y112.159
G1 F1200 X154.757 Y115.159 E61.75274
G0 F6000 X154.757 Y115.725
G1 F1200 X151.192 Y112.159 E61.98754
G0 F6000 X150.626 Y112.159
G1 F1200 X154.757 Y116.29 E62.25957
G0 F6000 X154.757 Y116.856
G1 F1200 X150.06 Y112.159 E62.56888
G0 F6000 X149.495 Y112.159
G1 F1200 X154.757 Y117.422 E62.91542
G0 F6000 X154.757 Y117.987
G1 F1200 X148.929 Y112.159 E63.2992
G0 F6000 X148.363 Y112.159
G1 F1200 X154.757 Y118.553 E63.72026
G0 F6000 X154.757 Y119.119
G1 F1200 X147.798 Y112.159 E64.17855
G0 F6000 X147.232 Y112.159
G1 F1200 X154.757 Y119.684 E64.67409
G0 F6000 X154.757 Y120.25
G1 F1200 X146.666 Y112.159 E65.20689
G0 F6000 X146.1 Y112.159
G1 F1200 X154.757 Y120.816 E65.77697
G0 F6000 X154.757 Y121.381
G1 F1200 X145.535 Y112.159 E66.38426
G0 F6000 X144.969 Y112.159
G1 F1200 X154.757 Y121.947 E67.02881
G0 F6000 X154.757 Y122.513
G1 F1200 X144.403 Y112.159 E67.71064
G0 F6000 X143.838 Y112.159
G1 F1200 X154.517 Y122.839 E68.41391
G0 F6000 X153.951 Y122.839
G1 F1200 X143.272 Y112.159 E69.11717
G0 F6000 X142.706 Y112.159
G1 F1200 X153.386 Y122.839 E69.82047
G0 F6000 X152.82 Y122.839
G1 F1200 X142.141 Y112.159 E70.52373
G0 F6000 X141.575 Y112.159
G1 F1200 X152.254 Y122.839 E71.22699
G0 F6000 X151.689 Y122.839
G1 F1200 X141.009 Y112.159 E71.93029
G0 F6000 X140.444 Y112.159
G1 F1200 X151.123 Y122.839 E72.63355
G0 F6000 X150.557 Y122.839
G1 F1200 X139.878 Y112.159 E73.33681
G0 F6000 X139.312 Y112.159
G1 F1200 X149.992 Y122.839 E74.04011
G0 F6000 X149.426 Y122.839
G1 F1200 X138.747 Y112.159 E74.74337
G0 F6000 X138.181 Y112.159
G1 F1200 X148.86 Y122.839 E75.44664
G0 F6000 X148.295 Y122.839
G1 F1200 X137.615 Y112.159 E76.14993
G0 F6000 X137.05 Y112.159
G1 F1200 X147.729 Y122.839 E76.8532
G0 F6000 X147.163 Y122.839
G1 F1200 X136.484 Y112.159 E77.55646
G0 F6000 X135.918 Y112.159
G1 F1200 X146.598 Y122.839 E78.25976
G0 F6000 X146.032 Y122.839
G1 F1200 X135.352 Y112.159 E78.96305
G0 F6000 X134.787 Y112.159
G1 F1200 X145.466 Y122.839 E79.66632
G0 F6000 X144.901 Y122.839
G1 F1200 X134.221 Y112.159 E80.36961
G0 F6000 X133.655 Y112.159
G1 F1200 X144.335 Y122.839 E81.07291
G0 F6000 X143.769 Y122.839
G1 F1200 X133.09 Y112.159 E81.77617
G0 F6000 X132.524 Y112.159
G1 F1200 X143.203 Y122.839 E82.47944
G0 F6000 X142.638 Y122.839
G1 F1200 X131.958 Y112.159 E83.18273
G0 F6000 X131.393 Y112.159
G1 F1200 X142.072 Y122.839 E83.886
