;FLAVOR:Marlin
;TIME:1078
;Filament used: 0.369446m
;Layer height: 0.12
;MINX:0
;MINY:28.608
;MINZ:0.12
;MAXX:235
;MAXY:206.269
;MAXZ:71.32
;Generated with Cura_SteamEngine main
M140 S50
M105
M190 S50
M104 S200
M105
M109 S200
M82 ;absolute extrusion mode
; Ender 3 Custom Start G-code
G92 E0 ; Reset Extruder
G28 ; Home all axes
G1 Z2.0 F3000 ; Move Z Axis up little to prevent scratching of Heat Bed
G1 X0.1 Y20 Z0.3 F5000.0 ; Move to start position
G1 X0.1 Y200.0 Z0.3 F1500.0 E15 ; Draw the first line
G1 X0.4 Y200.0 Z0.3 F5000.0 ; Move to side a little
G1 X0.4 Y20 Z0.3 F1500.0 E30 ; Draw the second line
G92 E0 ; Reset Extruder
G1 Z2.0 F3000 ; Move Z Axis up little to prevent scratching of Heat Bed
G1 X5 Y20 Z0.3 F5000.0 ; Move over to prevent blob squish
G92 E0
G92 E0
G1 F2700 E-5
;LAYER_COUNT:447
;LAYER:0
M107
G0 F6000 X0.00 Y31.736 Z0.12
;TYPE:SKIRT
G1 F2700 E0
G1 F1200 X0.502 Y31.341 E0.01275
G1 X1.258 Y30.847 E0.03077
G1 X2.055 Y30.422 E0.04879
G1 X2.887 Y30.07 E0.06682
G1 X3.746 Y29.792 E0.08484
G1 X4.627 Y29.591 E0.10287
G1 X5.521 Y29.469 E0.12088
G1 X6.251 Y29.429 E0.13547
G1 X7.425 Y29.408 E0.1589
G1 X227.813 Y29.409 E4.55698
G1 X228.502 Y29.419 E4.57073
G1 X229.404 Y29.472 E4.58877
G1 X230.297 Y29.605 E4.60678
G1 X231.175 Y29.816 E4.6248
G1 X232.031 Y30.104 E4.64283
G1 X232.858 Y30.466 E4.66084
G1 X233.65 Y30.901 E4.67887
G1 X234.4 Y31.403 E4.69688
G1 X235 Y31.887 E4.71227
G1 F2700 E-0.28773
G0 F6000 X0.00 Y31.228
G1 F2700 E4.71227
G1 F1200 X0.283 Y31.006 E4.71945
G1 X1.039 Y30.512 E4.73747
G1 X1.867 Y30.069 E4.75621
G1 X2.764 Y29.689 E4.77565
G1 X3.623 Y29.411 E4.79367
G1 X4.538 Y29.201 E4.8124
G1 X5.499 Y29.07 E4.83176
G1 X6.244 Y29.029 E4.84665
G1 X7.425 Y29.008 E4.87022
G1 X227.819 Y29.009 E9.26842
G1 X228.525 Y29.02 E9.28251
G1 X229.463 Y29.076 E9.30126
G1 X230.356 Y29.209 E9.31928
G1 X231.303 Y29.437 E9.33872
G1 X232.159 Y29.725 E9.35674
G1 X233.051 Y30.115 E9.37617
G1 X233.843 Y30.55 E9.3942
G1 X234.651 Y31.092 E9.41362
G1 X235 Y31.374 E9.42257
G1 F2700 E4.42257
G0 F6000 X0.00 Y30.721
G1 F2700 E9.42257
G1 F1200 X0.064 Y30.671 E9.42419
G1 X0.85 Y30.159 E9.44291
G1 X1.678 Y29.716 E9.46165
G1 X2.641 Y29.308 E9.48252
G1 X3.5 Y29.03 E9.50054
G1 X4.449 Y28.811 E9.51998
G1 X5.477 Y28.671 E9.54068
G1 X6.237 Y28.629 E9.55587
G1 X7.425 Y28.608 E9.57958
G1 X227.825 Y28.609 E13.9779
G1 X228.549 Y28.621 E13.99235
G1 X229.522 Y28.68 E14.0118
G1 X230.415 Y28.813 E14.02982
G1 X231.397 Y29.048 E14.04997
G1 X232.319 Y29.358 E14.06938
G1 X233.244 Y29.764 E14.08954
G1 X234.036 Y30.199 E14.10758
G1 X234.874 Y30.76 E14.1277
G1 X235 Y30.861 E14.13092
G1 F2700 E9.13092
G0 F6000 X235 Y202.613
G1 F2700 E14.13092
G1 F1200 X234.875 Y202.719 E14.13419
G1 X234.29 Y203.161 E14.14883
G1 X233.656 Y203.614 E14.16438
G1 X232.895 Y204.1 E14.18239
G1 X232.094 Y204.517 E14.20042
G1 X231.259 Y204.861 E14.21844
G1 X230.397 Y205.13 E14.23646
G1 X229.515 Y205.322 E14.25447
G1 X228.619 Y205.435 E14.27249
G1 X227.716 Y205.469 E14.29053
G1 X226.814 Y205.422 E14.30855
G1 X225.92 Y205.296 E14.32657
G1 X225.04 Y205.091 E14.3446
G1 X224.182 Y204.809 E14.36262
G1 X223.353 Y204.453 E14.38063
G1 X222.558 Y204.024 E14.39866
G1 X221.945 Y203.628 E14.41322
G1 X221.303 Y203.179 E14.42885
G1 X220.787 Y202.802 E14.44161
G1 X220.085 Y202.233 E14.45964
G1 X219.437 Y201.605 E14.47765
G1 X218.846 Y200.922 E14.49567
G1 X218.318 Y200.189 E14.5137
G1 X217.857 Y199.412 E14.53173
G1 X217.467 Y198.598 E14.54974
G1 X217.15 Y197.752 E14.56777
G1 X216.909 Y196.882 E14.58579
G1 X216.746 Y195.994 E14.6038
G1 X216.652 Y194.787 E14.62796
G1 X216.633 Y193.676 E14.65014
G1 X216.633 Y141.49 E15.69157
G1 X216.596 Y138.884 E15.74358
G1 X216.487 Y136.318 E15.79483
G1 X216.309 Y133.811 E15.84499
G1 X216.058 Y131.27 E15.89594
G1 X215.737 Y128.763 E15.94638
G1 X215.343 Y126.258 E15.99698
G1 X214.877 Y123.751 E16.04787
G1 X214.349 Y121.289 E16.09812
G1 X213.743 Y118.824 E16.14878
G1 X213.061 Y116.343 E16.20012
G1 X212.323 Y113.932 E16.25044
G1 X211.512 Y111.53 E16.30104
G1 X210.622 Y109.117 E16.35236
G1 X209.685 Y106.783 E16.40255
G1 X208.67 Y104.449 E16.45334
G1 X207.599 Y102.166 E16.50367
G1 X206.449 Y99.883 E16.55468
G1 X205.238 Y97.638 E16.60558
G1 X203.981 Y95.459 E16.65578
G1 X202.638 Y93.278 E16.7069
G1 X201.255 Y91.166 E16.75728
G1 X199.792 Y89.066 E16.80835
G1 X198.298 Y87.042 E16.85856
G1 X196.716 Y85.023 E16.90974
G1 X195.116 Y83.097 E16.95971
G1 X193.409 Y81.157 E17.01128
G1 X191.691 Y79.309 E17.06163
G1 X189.933 Y77.523 E17.11164
G1 X188.087 Y75.752 E17.16269
G1 X186.186 Y74.03 E17.21388
G1 X184.268 Y72.388 E17.26427
G1 X182.307 Y70.801 E17.31461
G1 X180.255 Y69.238 E17.36609
G1 X178.209 Y67.767 E17.41637
G1 X176.104 Y66.342 E17.4671
G1 X173.973 Y64.986 E17.51751
G1 X171.797 Y63.686 E17.56809
G1 X169.559 Y62.434 E17.61927
G1 X167.321 Y61.264 E17.66966
G1 X165.028 Y60.146 E17.72057
G1 X162.71 Y59.096 E17.77136
G1 X160.37 Y58.117 E17.82197
G1 X158.012 Y57.205 E17.87243
G1 X155.614 Y56.355 E17.9232
G1 X153.195 Y55.575 E17.97392
G1 X150.774 Y54.868 E18.02425
G1 X148.275 Y54.215 E18.0758
G1 X145.822 Y53.649 E18.12604
G1 X143.354 Y53.151 E18.17628
G1 X140.824 Y52.715 E18.22751
G1 X138.326 Y52.357 E18.27787
G1 X135.779 Y52.065 E18.32903
G1 X133.273 Y51.849 E18.37923
G1 X130.745 Y51.703 E18.42976
G1 X128.156 Y51.627 E18.48145
G1 X126.759 Y51.617 E18.50933
G1 X7.596 Y51.616 E20.88736
G1 X6.898 Y51.606 E20.90129
G1 X5.996 Y51.553 E20.91932
G1 X5.103 Y51.421 E20.93733
G1 X4.225 Y51.21 E20.95535
G1 X3.369 Y50.922 E20.97338
G1 X2.542 Y50.56 E20.99139
G1 X1.75 Y50.125 E21.00943
G1 X1.186 Y49.757 E21.02286
G1 X0.64 Y49.374 E21.03617
G1 X0.004 Y48.905 E21.05194
G0 F6000 X0.00 Y49.399
G1 F1200 X0.403 Y49.696 E21.06193
G1 X0.956 Y50.084 E21.07542
G1 X1.557 Y50.476 E21.08973
G1 X2.349 Y50.911 E21.10777
G1 X3.241 Y51.301 E21.12719
G1 X4.097 Y51.589 E21.14522
G1 X5.045 Y51.817 E21.16468
G1 X5.938 Y51.949 E21.18269
G1 X6.875 Y52.005 E21.20142
G1 X7.59 Y52.016 E21.21569
G1 X126.756 Y52.017 E23.59378
G1 X128.144 Y52.027 E23.62148
G1 X130.733 Y52.103 E23.67317
G1 X133.239 Y52.247 E23.72326
G1 X135.745 Y52.464 E23.77346
G1 X138.269 Y52.753 E23.82416
G1 X140.767 Y53.111 E23.87451
G1 X143.279 Y53.544 E23.92538
G1 X145.732 Y54.039 E23.97532
G1 X148.185 Y54.605 E24.02556
G1 X150.662 Y55.252 E24.07665
G1 X153.072 Y55.956 E24.12676
G1 X155.491 Y56.736 E24.17748
G1 X157.878 Y57.582 E24.22801
G1 X160.216 Y58.486 E24.27804
G1 X162.556 Y59.465 E24.32866
G1 X164.853 Y60.506 E24.37898
G1 X167.146 Y61.624 E24.42989
G1 X169.364 Y62.783 E24.47983
G1 X171.602 Y64.035 E24.53101
G1 X173.758 Y65.323 E24.58113
G1 X175.88 Y66.673 E24.63132
G1 X177.975 Y68.091 E24.6818
G1 X180.021 Y69.563 E24.7321
G1 X182.055 Y71.112 E24.78312
G1 X184.016 Y72.699 E24.83347
G1 X185.917 Y74.326 E24.8834
G1 X187.81 Y76.041 E24.93438
G1 X189.648 Y77.804 E24.9852
G1 X191.406 Y79.59 E25.03521
G1 X193.109 Y81.421 E25.08511
G1 X194.809 Y83.353 E25.13647
G1 X196.401 Y85.27 E25.1862
G1 X197.976 Y87.28 E25.23716
G1 X199.47 Y89.304 E25.28736
G1 X200.92 Y91.385 E25.33797
G1 X202.297 Y93.488 E25.38814
G1 X203.64 Y95.669 E25.43925
G1 X204.886 Y97.828 E25.489
G1 X206.092 Y100.063 E25.53968
G1 X207.237 Y102.336 E25.59047
G1 X208.303 Y104.609 E25.64057
G1 X209.318 Y106.943 E25.69136
G1 X210.247 Y109.255 E25.74108
G1 X211.133 Y111.658 E25.79219
G1 X211.944 Y114.06 E25.84279
G1 X212.676 Y116.449 E25.89265
G1 X213.357 Y118.93 E25.94399
G1 X213.958 Y121.373 E25.9942
G1 X214.484 Y123.824 E26.04423
G1 X214.948 Y126.32 E26.09489
G1 X215.34 Y128.814 E26.14527
G1 X215.661 Y131.321 E26.19571
G1 X215.91 Y133.839 E26.2462
G1 X216.087 Y136.335 E26.29614
G1 X216.196 Y138.89 E26.34717
G1 X216.233 Y141.49 E26.39906
G1 X216.233 Y193.683 E27.44063
G1 X216.252 Y194.794 E27.46281
G1 X216.347 Y196.025 E27.48745
G1 X216.516 Y196.954 E27.50629
G1 X216.775 Y197.892 E27.52571
G1 X217.092 Y198.738 E27.54374
G1 X217.496 Y199.585 E27.56246
G1 X217.993 Y200.423 E27.58191
G1 X218.521 Y201.156 E27.59993
G1 X219.135 Y201.867 E27.61868
G1 X219.833 Y202.544 E27.63809
G1 X220.535 Y203.113 E27.65612
G1 X221.067 Y203.502 E27.66927
G1 X221.716 Y203.956 E27.68508
G1 X222.341 Y204.36 E27.69993
G1 X223.195 Y204.821 E27.7193
G1 X224.024 Y205.177 E27.7373
G1 X224.949 Y205.481 E27.75673
G1 X225.829 Y205.686 E27.77476
G1 X226.758 Y205.818 E27.79349
G1 X227.731 Y205.869 E27.81293
G1 X228.634 Y205.835 E27.83097
G1 X229.565 Y205.719 E27.84969
G1 X230.482 Y205.521 E27.86841
G1 X231.378 Y205.243 E27.88713
G1 X232.279 Y204.872 E27.90658
G1 X233.08 Y204.455 E27.9246
G1 X233.871 Y203.951 E27.94332
G1 X234.523 Y203.486 E27.9593
G1 X235 Y203.126 E27.97122
G1 F2700 E22.97122
G0 F6000 X0.00 Y49.896
G1 F2700 E27.97122
G1 F1200 X0.726 Y50.411 E27.98899
G1 X1.364 Y50.827 E28.00418
G1 X2.156 Y51.262 E28.02222
G1 X3.081 Y51.668 E28.04238
G1 X4.003 Y51.978 E28.06179
G1 X4.951 Y52.206 E28.08125
G1 X5.88 Y52.345 E28.09999
G1 X6.851 Y52.404 E28.1194
G1 X7.584 Y52.416 E28.13403
G1 X126.753 Y52.417 E30.51218
G1 X128.132 Y52.427 E30.5397
G1 X130.721 Y52.503 E30.59139
G1 X133.204 Y52.645 E30.64102
G1 X135.71 Y52.863 E30.69122
G1 X138.212 Y53.149 E30.74148
G1 X140.71 Y53.507 E30.79183
G1 X143.204 Y53.937 E30.84234
G1 X145.642 Y54.429 E30.89197
G1 X148.095 Y54.995 E30.94221
G1 X150.55 Y55.636 E30.99285
G1 X152.949 Y56.337 E31.04272
G1 X155.368 Y57.117 E31.09344
G1 X157.744 Y57.959 E31.14375
G1 X160.062 Y58.855 E31.19334
G1 X162.402 Y59.834 E31.24396
G1 X164.678 Y60.866 E31.29383
G1 X166.961 Y61.979 E31.34452
G1 X169.179 Y63.138 E31.39446
G1 X171.407 Y64.384 E31.4454
G1 X173.543 Y65.66 E31.49506
G1 X175.656 Y67.004 E31.54503
G1 X177.741 Y68.415 E31.59527
G1 X179.787 Y69.888 E31.64558
G1 X181.803 Y71.423 E31.69615
G1 X183.764 Y73.01 E31.74649
G1 X185.648 Y74.622 E31.79597
G1 X187.533 Y76.33 E31.84674
G1 X189.363 Y78.085 E31.89733
G1 X191.121 Y79.871 E31.94735
G1 X192.809 Y81.685 E31.9968
G1 X194.502 Y83.609 E32.04794
G1 X196.086 Y85.517 E32.09743
G1 X197.654 Y87.518 E32.14816
G1 X199.148 Y89.542 E32.19836
G1 X200.585 Y91.604 E32.24852
G1 X201.956 Y93.698 E32.29847
G1 X203.299 Y95.879 E32.34958
G1 X204.534 Y98.018 E32.39887
G1 X205.735 Y100.243 E32.44933
G1 X206.875 Y102.506 E32.49989
G1 X207.936 Y104.769 E32.54977
G1 X208.951 Y107.103 E32.60056
G1 X209.872 Y109.393 E32.64982
G1 X210.754 Y111.786 E32.70072
G1 X211.565 Y114.188 E32.75131
G1 X212.291 Y116.555 E32.80072
G1 X212.971 Y119.036 E32.85205
G1 X213.567 Y121.457 E32.90181
G1 X214.091 Y123.897 E32.95161
G1 X214.553 Y126.382 E33.00205
G1 X214.943 Y128.865 E33.05221
G1 X215.264 Y131.372 E33.10265
G1 X215.511 Y133.867 E33.15268
G1 X215.687 Y136.352 E33.2024
G1 X215.796 Y138.896 E33.25321
G1 X215.833 Y141.49 E33.30499
G1 X215.833 Y193.69 E34.34669
G1 X215.852 Y194.801 E34.36887
G1 X215.953 Y196.097 E34.39481
G1 X216.122 Y197.026 E34.41365
G1 X216.389 Y197.998 E34.43377
G1 X216.717 Y198.878 E34.45251
G1 X217.135 Y199.757 E34.47193
G1 X217.668 Y200.657 E34.49281
G1 X218.196 Y201.39 E34.51083
G1 X218.832 Y202.128 E34.53028
G1 X219.581 Y202.855 E34.55111
G1 X220.283 Y203.424 E34.56914
G1 X220.831 Y203.825 E34.58269
G1 X221.487 Y204.284 E34.59867
G1 X222.124 Y204.696 E34.61381
G1 X223.037 Y205.189 E34.63451
G1 X223.866 Y205.545 E34.65252
G1 X224.858 Y205.871 E34.67336
G1 X225.738 Y206.076 E34.69139
G1 X226.702 Y206.214 E34.71082
G1 X227.746 Y206.269 E34.73169
G1 X228.649 Y206.235 E34.74972
G1 X229.614 Y206.116 E34.76912
G1 X230.601 Y205.903 E34.78927
G1 X231.497 Y205.625 E34.80799
G1 X232.464 Y205.227 E34.82886
G1 X233.265 Y204.81 E34.84688
G1 X234.086 Y204.288 E34.8663
G1 X234.755 Y203.812 E34.88268
G1 X235 Y203.627 E34.88881
G1 F2700 E29.88881
;MESH:size_comparison.stl
G0 F6000 X228.955 Y195.258
G0 X228.319 Y194.383
G0 X227.733 Y40.674
G0 X227.664 Y40.674
;TYPE:WALL-INNER
G1 F2700 E34.88881
G1 F902.3 X227.63 Y40.731 E34.89057
G1 X227.565 Y40.731 E34.8923
G1 X227.533 Y40.674 E34.89403
G1 X227.566 Y40.617 E34.89578
G1 X227.63 Y40.617 E34.89748
G1 F2700 E29.89748
G0 F6000 X227.63 Y40.517
G0 X227.784 Y194.199
G0 X227.783 Y194.453
G1 F2700 E34.89748
G1 F874.3 X228.059 Y194.252 E34.90683
G1 X228.059 Y194.112 E34.91066
G1 X228.06 Y117.764 E37.00182
G1 F872.7 X228.061 Y41.416 E39.09677
G1 F935.7 X228.143 Y40.842 E39.11161
G1 F1098.4 X227.936 Y40.208 E39.12615
G1 F1200 X227.598 Y40.208 E39.1329
G1 F1061.9 X226.833 Y40.261 E39.15019
G1 F952.4 X6.921 Y40.26 E44.67981
G1 X6.85 Y40.476 E44.68552
G1 X7.248 Y40.765 E44.69789
G1 X226.833 Y40.765 E50.21928
G1 F981.6 X227.3 Y41.018 E50.23224
G1 F935.7 X227.509 Y41.417 E50.24377
G1 F872.7 X227.509 Y117.765 E52.33873
G1 F874.3 X227.508 Y194.113 E54.42988
G1 X227.508 Y194.252 E54.43368
G1 X227.783 Y194.453 E54.44301
G0 F6000 X227.783 Y195.039
;TYPE:WALL-OUTER
G1 F1200 X228.535 Y194.492 E54.46157
G1 X228.536 Y40.758 E57.5295
G1 X228.226 Y39.808 E57.54944
G1 X6.593 Y39.808 E61.97237
G1 X6.319 Y40.649 E61.99002
G1 X7.101 Y41.217 E62.00931
G1 X226.833 Y41.217 E66.3943
G1 X226.977 Y41.277 E66.39741
G1 X227.034 Y41.417 E66.40043
G1 X227.034 Y194.494 E69.45524
G1 X227.783 Y195.039 E69.47373
G1 F2700 E64.47373
;MESH:NOMESH
G0 F300 X227.783 Y195.039 Z0.28
G0 F6000 X227.784 Y194.199
G0 X227.661 Y40.589
G0 X227.63 Y40.617
;TIME_ELAPSED:196.672780
;LAYER:1
M106 S85
;TYPE:WALL-INNER
;MESH:size_comparison.stl
G1 F2700 E69.47373
G1 F1015 X227.566 Y40.617 E69.47599
G1 X227.533 Y40.674 E69.47832
G1 X227.565 Y40.731 E69.48064
G1 X227.63 Y40.731 E69.48294
G1 X227.664 Y40.674 E69.48529
G1 F2700 E64.48529
G0 F7500 X227.733 Y40.674
G0 X227.784 Y194.199
G0 X227.783 Y194.453
G1 F2700 E69.48529
G1 F983.6 X228.059 Y194.252 E69.49775
G1 X228.059 Y194.112 E69.50287
G1 X228.06 Y117.764 E72.29107
G1 F981.8 X228.061 Y41.416 E75.08435
G1 F1052.6 X228.143 Y40.842 E75.10413
G1 F1235.7 X227.936 Y40.208 E75.12352
G1 F1350 X227.598 Y40.208 E75.13251
G1 F1194.7 X226.833 Y40.261 E75.15557
G1 F1071.4 X6.921 Y40.26 E82.52839
G1 X6.85 Y40.476 E82.53601
G1 X7.248 Y40.765 E82.5525
G1 X226.833 Y40.765 E89.91436
G1 F1104.3 X227.3 Y41.018 E89.93163
G1 F1052.6 X227.509 Y41.417 E89.947
G1 F981.8 X227.509 Y117.765 E92.74028
G1 F983.6 X227.508 Y194.113 E95.52848
G1 X227.508 Y194.252 E95.53356
G1 X227.783 Y194.453 E95.546
G0 F7500 X227.783 Y195.039
;TYPE:WALL-OUTER
G1 F1350 X228.535 Y194.492 E95.57074
G1 X228.536 Y40.758 E99.66131
G1 X228.226 Y39.808 E99.6879
G1 X6.593 Y39.808 E105.58514
G1 X6.319 Y40.649 E105.60867
G1 X7.101 Y41.217 E105.63439
G1 X226.833 Y41.217 E111.48104
G1 X226.977 Y41.277 E111.48519
G1 X227.034 Y41.417 E111.48921
G1 X227.034 Y194.494 E115.5623
G1 X227.783 Y195.039 E115.58695
G1 F2700 E110.58695
;MESH:NOMESH
G0 F300 X227.783 Y195.039 Z0.44
G0 F7500 X227.784 Y194.199
G0 X227.661 Y40.589
G0 X227.63 Y40.617
;TIME_ELAPSED:277.691196
;LAYER:2
M106 S170
;TYPE:WALL-INNER
;MESH:size_comparison.stl
G1 F2700 E115.58695
G1 F1127.8 X227.566 Y40.617 E115.58922
G1 X227.533 Y40.674 E115.59155
G1 X227.565 Y40.731 E115.59386
G1 X227.63 Y40.731 E115.59616
G1 X227.664 Y40.674 E115.59851
G1 F2700 E110.59851
G0 F9000 X227.733 Y40.674
G0 X227.784 Y194.199
G0 X227.783 Y194.453
G1 F2700 E115.59851
G1 F1092.9 X228.059 Y194.252 E115.61098
G1 X228.059 Y194.112 E115.61609
G1 X228.06 Y117.764 E118.40429
G1 F1090.9 X228.061 Y41.416 E121.19757
G1 F1169.6 X228.143 Y40.842 E121.21736
G1 F1373 X227.936 Y40.208 E121.23674
G1 F1500 X227.598 Y40.208 E121.24574
G1 F1327.4 X226.833 Y40.261 E121.26879
G1 F1190.5 X6.921 Y40.26 E128.64161
G1 X6.85 Y40.476 E128.64923
G1 X7.248 Y40.765 E128.66572
G1 X226.833 Y40.765 E136.02758
G1 F1227 X227.3 Y41.018 E136.04486
G1 F1169.6 X227.509 Y41.417 E136.06023
G1 F1090.9 X227.509 Y117.765 E138.85351
G1 F1092.9 X227.508 Y194.113 E141.64171
G1 X227.508 Y194.252 E141.64678
G1 X227.783 Y194.453 E141.65922
G0 F9000 X227.783 Y195.039
;TYPE:WALL-OUTER
G1 F1500 X228.535 Y194.492 E141.68396
G1 X228.536 Y40.758 E145.77454
G1 X228.226 Y39.808 E145.80113
G1 X6.593 Y39.808 E151.69836
G1 X6.319 Y40.649 E151.7219
G1 X7.101 Y41.217 E151.74761
G1 X226.833 Y41.217 E157.59427
G1 X226.977 Y41.277 E157.59842
G1 X227.034 Y41.417 E157.60244
G1 X227.034 Y194.494 E161.67553
G1 X227.783 Y195.039 E161.70017
G1 F2700 E156.70017
;MESH:NOMESH
G0 F300 X227.783 Y195.039 Z0.6
